!!!!SEGMENT: pl-sa--301-a-vii-61_lechleitner-ferdinand-simon--offertorium-de-ss-trinitate.krn
!!!cenid: 17xx:410
!!!COM: Lechleitner, Ferdinand Simon
!!!COM-rismID: pe30001903
!!!CDT: ~1700-~1800
!!!CNT:
!!!OTL: Offertorium de SS. Trinitate
!!!PDT:
!!!AGN: Sacred
!!!YEC: Copyright 2022 Narodowy Instytut Fryderyka Chopina (https://polishscores.org)
!!!YEM: License CC-BY-4.0 (https://creativecommons.org/licenses/by/4.0)
!!!SMS-siglum: PL-SA
!!!SMS-shelfmark: 301/A VII 61
!!!SMS-shelfwork: W
!!!NIFC-rismSourceID: 1001039706
!!!NIFC-rismChildID: 1001039706
!!!NIFC-islandoraID: none
!!!URL-pdf-islandora:
!!!URL-scan: https://bc.bdsandomierz.pl/dlibra/publication/1603/edition/1571/content @EN{Scan in the Sandomierz Diocese Digital Library} @PL{Skany w portalu Cyfrowa Biblioteka Diecezjalna w Sandomierzu}
!!!IIIF:
!!!ONB-nifc:
!!!AIN: 1 alto 1 empty 2 liuto 1 organ 1 tenor 2 violn 1 vox
!!!key:
**kern	**fba	**kern	**kern	**kern	**text	**kern	**text	**kern	**text	**kern	**text	**kern	**kern
*part9	*	*part8	*part7	*part6	*	*part5	*	*part4	*	*part3	*	*part2	*part1
*staff9	*	*staff8	*staff7	*staff6	*	*staff5	*	*staff4	*	*staff3	*	*staff2	*staff1
*Iorgan	*	*Ivioln	*Ivioln	*Iempty	*	*Itenor	*	*Ialto	*	*Ivox	*	*Iliuto	*Iliuto
*I"Organo	*	*I"Violino 2do	*I"Violino 1mo	*I"Baſso	*	*I"Tenore	*	*I"Alto	*	*I"Canto	*	*I"Lituo 2do ad libitum	*I"Lituo 1mo ad libitum
*I'Org	*	*I'Vno II	*I'Vno I	*I'B	*	*I'T	*	*I'A	*	*I'C	*	*I'Lit II	*I'Lit I
*clefF4	*	*clefG2	*clefG2	*clefF4	*	*clefC4	*	*clefC3	*	*clefC1	*	*clefG2	*clefG2
*	*	*	*	*	*	*	*	*	*	*	*	*ITrd-4c-7	*ITrd-4c-7
*k[f#]	*	*k[f#]	*k[f#]	*k[f#]	*	*k[f#]	*	*k[f#]	*	*k[f#]	*	*k[f#]	*k[f#]
*G:	*	*G:	*G:	*G:	*	*G:	*	*G:	*	*G:	*	*G:	*G:
*M2/2	*	*M2/2	*M2/2	*M4/4	*	*M4/4	*	*M4/4	*	*M4/4	*	*M4/4	*M4/4
*met(c|)	*	*met(c|)	*met(c|)	*met(c)	*	*met(c)	*	*met(c)	*	*met(c)	*	*met(c)	*met(c)
*2\right	*	*	*	*2\right	*	*2\right	*	*2\right	*	*2\right	*	*	*
!	!	!	!	!LO:TX:a:t=P:problem=w źródle metrum M4/4	!	!LO:TX:a:t=P:problem=w źródle metrum M4/4	!	!LO:TX:a:t=P:problem=w źródle metrum M4/4	!	!LO:TX:a:t=P:problem=w źródle metrum M4/4	!	!LO:TX:a:t=P:problem=w źródle metrum M4/4	!LO:TX:a:t=P:problem=w źródle metrum M4/4
!LO:TX:a:t=P:problem=w źródle metrum alla breve	!	!LO:TX:a:t=P:problem=w źródle metrum alla breve	!LO:TX:a:t=P:problem=w źródle metrum alla breve	!	!	!	!	!	!	!	!	!	!
!	!	!LO:TX:a:t=P:problem=znak przykluczowy f# zapisany w dwóch oktawach	!LO:TX:a:t=P:problem=znak przykluczowy f# zapisany w dwóch oktawach	!	!	!LO:TX:a:t=P:problem=znak przykluczowy f# zapisany w dwóch oktawach	!	!	!	!	!	!	!
!	!	!LO:TX:b:Bi:t=Benedicta:rj	!LO:TX:b:Bi:t=Benedicta:rj	!LO:TX:b:Bi:t=Benedicta:rj	!	!LO:TX:b:Bi:t=Benedicta:rj	!	!LO:TX:b:Bi:t=Benedicta:rj	!	!	!	!LO:TX:b:Bi:t=Benedicta:rj	!LO:TX:b:Bi:t=Benedicta:rj
!	!	!LO:TX:a:t=P:problem=w źródle ogonek nuty 8dd po lewej stronie	!LO:TX:a:t=P:problem=w źródle ogonek nuty 8dd po lewej stronie	!	!	!	!	!	!	!	!	!	!
!LO:TX:a:Bi:t=ſolo Allegro:rj	!	!LO:TX:a:Bi:t=Allegro Solo	!LO:TX:a:Bi:t=Allegro Solo:rj	!LO:TX:a:Bi:t=allegro:rj	!	!LO:TX:a:Bi:t=allegro:rj	!	!LO:TX:a:Bi:t=allegro:rj	!	!LO:TX:a:Bi:t=Allegro ſolo:rj	!	!LO:TX:a:Bi:t=Allegro:rj	!LO:TX:a:Bi:t=allegro:rj
8r	.	8dd\	8dd\	8r	.	8r	.	8r	.	8r	.	8r	8r
=1	=1	=1	=1	=1	=1	=1	=1	=1	=1	=1	=1	=1	=1
!	!	!	!LO:TX:a:t=P:problem=mixed beam	!LO:TX:a:Bi:t=18	!	!LO:TX:a:Bi:t=18	!	!LO:TX:a:Bi:t=18	!	!	!	!	!
8G\L	.	8b/L	8gg\L	00r	.	00r	.	00r	.	00r	.	00r	00r
8F#\	.	8a/	16g/L	.	.	.	.	.	.	.	.	.	.
.	.	.	16a/JJ	.	.	.	.	.	.	.	.	.	.
8G\	.	8b/	16b\LL	.	.	.	.	.	.	.	.	.	.
.	.	.	16dd\	.	.	.	.	.	.	.	.	.	.
8E\J	.	8g/J	16g\	.	.	.	.	.	.	.	.	.	.
.	.	.	16b\JJ	.	.	.	.	.	.	.	.	.	.
8F#\L	6	8a/L	8a/L	.	.	.	.	.	.	.	.	.	.
8D\J	.	16d/L	16d/L	.	.	.	.	.	.	.	.	.	.
.	.	16e/JJ	16e/JJ	.	.	.	.	.	.	.	.	.	.
4r	.	16f#/LL	16f#/LL	.	.	.	.	.	.	.	.	.	.
.	.	16a/	16a/	.	.	.	.	.	.	.	.	.	.
.	.	16d/	16d/	.	.	.	.	.	.	.	.	.	.
.	.	16f#/JJ	16f#/JJ	.	.	.	.	.	.	.	.	.	.
=2	=2	=2	=2	=2	=2	=2	=2	=2	=2	=2	=2	=2	=2
8C#X/L	6\	8e/L	8e/L	.	.	.	.	.	.	.	.	.	.
!	!	!	!LO:SIC:v:s=16B/L	!	!	!	!	!	!	!	!	!	!
8BB/	.	8d/J	16c#X/L	.	.	.	.	.	.	.	.	.	.
.	.	.	16d/JJ	.	.	.	.	.	.	.	.	.	.
8C#X/	.	8e/L	16e/LL	.	.	.	.	.	.	.	.	.	.
.	.	.	16g/	.	.	.	.	.	.	.	.	.	.
8AA/J	.	16c#X/L	16A/	.	.	.	.	.	.	.	.	.	.
.	.	16d/JJ	16g/JJ	.	.	.	.	.	.	.	.	.	.
8D\L	4	8e/L	(<8g/L	.	.	.	.	.	.	.	.	.	.
.	3	.	.	.	.	.	.	.	.	.	.	.	.
16D\L	.	8d/J	8f#/J)	.	.	.	.	.	.	.	.	.	.
16E\JJ	.	.	.	.	.	.	.	.	.	.	.	.	.
8F#\L	6\	8r	16r	.	.	.	.	.	.	.	.	.	.
.	.	.	16d/LL	.	.	.	.	.	.	.	.	.	.
8D\J	.	8a/	16f#/	.	.	.	.	.	.	.	.	.	.
.	.	.	16a/JJ	.	.	.	.	.	.	.	.	.	.
=3	=3	=3	=3	=3	=3	=3	=3	=3	=3	=3	=3	=3	=3
4G\	9 x	8a/L	8cc\L	.	.	.	.	.	.	.	.	.	.
.	8 x	16f#/L	16a\L	.	.	.	.	.	.	.	.	.	.
.	.	16g/JJ	16b\JJ	.	.	.	.	.	.	.	.	.	.
8r	.	16a/LL	16cc\LL	.	.	.	.	.	.	.	.	.	.
.	.	16f#/	16a\	.	.	.	.	.	.	.	.	.	.
8D\	7 x	16f#/	16a\	.	.	.	.	.	.	.	.	.	.
.	.	16g/JJ	16b\JJ	.	.	.	.	.	.	.	.	.	.
8G\L	9 4	8a/L	8cc\L	.	.	.	.	.	.	.	.	.	.
16G\L	8 3	16g/L	8b\J	.	.	.	.	.	.	.	.	.	.
16A\JJ	.	16f#/JJ	.	.	.	.	.	.	.	.	.	.	.
8B\L	6 x	8g/L	16r	.	.	.	.	.	.	.	.	.	.
.	.	.	16g\LL	.	.	.	.	.	.	.	.	.	.
8G\J	.	8b/J	16b\	.	.	.	.	.	.	.	.	.	.
.	.	.	16dd\JJ	.	.	.	.	.	.	.	.	.	.
!	!	!	!LO:LB:g=original	!	!	!	!	!	!	!	!	!	!
=4	=4	=4	=4	=4	=4	=4	=4	=4	=4	=4	=4	=4	=4
!	!	!	!LO:TX:a:t=P:problem=w źródle bemole przy dźwiękach '16ff' i '8ff' użyte w formie kasownika	!	!	!	!	!	!	!	!	!	!
!	!	!	!LO:SIC:v:s=8ff\L	!	!	!	!	!	!	!	!	!	!
4GG/	-n	8dd\L	8ff-\L	.	.	.	.	.	.	.	.	.	.
.	7	16b\L	16dd\L	.	.	.	.	.	.	.	.	.	.
.	.	16cc\JJ	16ee\JJ	.	.	.	.	.	.	.	.	.	.
!	!	!	!LO:SIC:v:s=16ff\LL	!	!	!	!	!	!	!	!	!	!
8r	.	16dd\LL	16ff-\LL	.	.	.	.	.	.	.	.	.	.
.	.	16b\	16dd\	.	.	.	.	.	.	.	.	.	.
8GG/	-n	16b\	16dd\	.	.	.	.	.	.	.	.	.	.
.	7	16cc\JJ	16ee\JJ	.	.	.	.	.	.	.	.	.	.
!	!	!LO:LB:g=original	!	!	!	!	!	!	!	!	!	!	!
!	!	!	!LO:SIC:v:s=8ff\L	!	!	!	!	!	!	!	!	!	!
8C/L	6	8dd\L	8ff-\L	.	.	.	.	.	.	.	.	.	.
.	4	.	.	.	.	.	.	.	.	.	.	.	.
16C/L	3	16cc\L	8ee\J	.	.	.	.	.	.	.	.	.	.
16D/JJ	6	16b\JJ	.	.	.	.	.	.	.	.	.	.	.
!LO:TX:a:t=P:problem=mixed beam	!	!	!	!	!	!	!	!	!	!	!	!	!
8E\L	6	8cc\L	16r	.	.	.	.	.	.	.	.	.	.
.	.	.	16a\LL	.	.	.	.	.	.	.	.	.	.
8AA/J	#	8cc#X\J	16cc#X\	.	.	.	.	.	.	.	.	.	.
.	.	.	16ee\JJ	.	.	.	.	.	.	.	.	.	.
!LO:LB:g=original	!	!	!	!	!	!	!	!	!	!	!	!	!
=5	=5	=5	=5	=5	=5	=5	=5	=5	=5	=5	=5	=5	=5
4AA/	7 #	8ee\L	8gg\L	00r	.	00r	.	00r	.	00r	.	00r	00r
.	.	16cc#X\L	16ee\L	.	.	.	.	.	.	.	.	.	.
.	.	16dd\JJ	16ff#\JJ	.	.	.	.	.	.	.	.	.	.
8r	.	16ee\LL	16gg\LL	.	.	.	.	.	.	.	.	.	.
.	.	16cc#X\	16ee\	.	.	.	.	.	.	.	.	.	.
8AA/	7 #	16cc#\	16ee\	.	.	.	.	.	.	.	.	.	.
.	.	16dd\JJ	16ff#\JJ	.	.	.	.	.	.	.	.	.	.
8D\L	4 x	8ee\L	8gg\L	.	.	.	.	.	.	.	.	.	.
.	3 x	.	.	.	.	.	.	.	.	.	.	.	.
16D\L	.	16dd\L	8ff#\J	.	.	.	.	.	.	.	.	.	.
16E\JJ	.	16cc#X\JJ	.	.	.	.	.	.	.	.	.	.	.
8F#\L	.	8dd\L	16r	.	.	.	.	.	.	.	.	.	.
.	.	.	16dd\LL	.	.	.	.	.	.	.	.	.	.
8D\J	.	8a\J	16ff#\	.	.	.	.	.	.	.	.	.	.
.	.	.	16aa\JJ	.	.	.	.	.	.	.	.	.	.
=6	=6	=6	=6	=6	=6	=6	=6	=6	=6	=6	=6	=6	=6
4DD/	-n	8a/L	8cc\L	.	.	.	.	.	.	.	.	.	.
.	7	16f#/L	16a\L	.	.	.	.	.	.	.	.	.	.
.	.	16g/JJ	16b\JJ	.	.	.	.	.	.	.	.	.	.
8r	.	16a/LL	16cc\LL	.	.	.	.	.	.	.	.	.	.
.	.	16f#/	16a\	.	.	.	.	.	.	.	.	.	.
8D\	7	16f#/	16a\	.	.	.	.	.	.	.	.	.	.
.	.	16g/JJ	16b\JJ	.	.	.	.	.	.	.	.	.	.
8A\L	3_	8a\L	8cc\L	.	.	.	.	.	.	.	.	.	.
8G\	.	16cc\L	16aa\L	.	.	.	.	.	.	.	.	.	.
.	.	16b\JJ	16gg\JJ	.	.	.	.	.	.	.	.	.	.
8F#\	X	16cc\LL	16aa\LL	.	.	.	.	.	.	.	.	.	.
.	.	16b\	16dd\	.	.	.	.	.	.	.	.	.	.
8E\J	.	16a\	16cc\	.	.	.	.	.	.	.	.	.	.
.	.	16g\JJ	16b\JJ	.	.	.	.	.	.	.	.	.	.
=7	=7	=7	=7	=7	=7	=7	=7	=7	=7	=7	=7	=7	=7
8D\L	7_ x	16a/LL	16cc\LL	.	.	.	.	.	.	.	.	.	.
.	.	16g/JJ	16b\JJ	.	.	.	.	.	.	.	.	.	.
8D\	.	4a/	4cc\	.	.	.	.	.	.	.	.	.	.
8E\	.	.	.	.	.	.	.	.	.	.	.	.	.
!	!	!	!LO:LB:g=original	!	!	!	!	!	!	!	!	!	!
8F#\J	X x	16g/LL	16b/LL	.	.	.	.	.	.	.	.	.	.
.	.	16f#/JJ	16a/JJ	.	.	.	.	.	.	.	.	.	.
!LO:TX:a:t=P:problem=mixed beam	!	!	!	!	!	!	!	!	!	!	!	!	!
8G\L	.	8d/L	8b/L	.	.	.	.	.	.	.	.	.	.
8C/J	6 x	8e/	16a/L	.	.	.	.	.	.	.	.	.	.
.	5 x	.	16g/JJ	.	.	.	.	.	.	.	.	.	.
!LO:TX:a:t=P:problem=mixed beam	!	!	!	!	!	!	!	!	!	!	!	!	!
8D\L	5 4	8.f#/	8.f#/L	.	.	.	.	.	.	.	.	.	.
.	x 3	.	.	.	.	.	.	.	.	.	.	.	.
8DD/J	.	.	.	.	.	.	.	.	.	.	.	.	.
.	.	16f#/Jk	16f#/Jk	.	.	.	.	.	.	.	.	.	.
!	!	!LO:LB:g=original	!	!	!	!	!	!	!	!	!	!	!
=8	=8	=8	=8	=8	=8	=8	=8	=8	=8	=8	=8	=8	=8
8E\L	.	8g/L	16g/LL	.	.	.	.	.	.	.	.	.	.
.	.	.	16a/	.	.	.	.	.	.	.	.	.	.
16D\L	.	16g/L	16b/	.	.	.	.	.	.	.	.	.	.
16C\JJ	.	16a/JJ	16cc/JJ	.	.	.	.	.	.	.	.	.	.
8BB/L	6 x	8b\L	8dd\L	.	.	.	.	.	.	.	.	.	.
8GG/J	.	8dd\J	8gg\J	.	.	.	.	.	.	.	.	.	.
!	!	!	!LO:TX:a:t=P:problem=mixed beam	!	!	!	!	!	!	!	!	!	!
8C/L	.	8cc\L	8ee\L	.	.	.	.	.	.	.	.	.	.
16BB/L	.	16dd\L	8gg\	.	.	.	.	.	.	.	.	.	.
16C/JJ	.	16ee\JJ	.	.	.	.	.	.	.	.	.	.	.
!	!	!LO:TX:a:t=P:problem=mixed beam	!	!	!	!	!	!	!	!	!	!	!
8D/L	.	8a/L	8d/	.	.	.	.	.	.	.	.	.	.
8DD/J	5 4	8ff#\J	8ff#\J	.	.	.	.	.	.	.	.	.	.
.	x 3	.	.	.	.	.	.	.	.	.	.	.	.
=9	=9	=9	=9	=9	=9	=9	=9	=9	=9	=9-	=9-	=9	=9
4GG/	.	4g/	4g/	00r	.	00r	.	00r	.	8rb	.	00r	00r
.	.	.	.	.	.	.	.	.	.	16b\	Be-	.	.
.	.	.	.	.	.	.	.	.	.	16cc\	-ne-	.	.
8r	.	4r	4r	.	.	.	.	.	.	8dd\	-dic-	.	.
16G\LL	.	.	.	.	.	.	.	.	.	8g/	-ta	.	.
16F#\JJ	.	.	.	.	.	.	.	.	.	.	.	.	.
!LO:LB:g=original	!	!	!	!	!	!	!	!	!	!	!	!	!
!LO:TX:a:t=P:problem=mixed beam	!	!	!	!	!	!	!	!	!	!	!	!	!
8G\L	.	2rg	2rg	.	.	.	.	.	.	8rb	.	.	.
*	*	*	*	*	*	*	*	*	*	*	*ij	*	*
8GG/J	.	.	.	.	.	.	.	.	.	16b\	Be-	.	.
.	.	.	.	.	.	.	.	.	.	16cc\	-ne-	.	.
8r	.	.	.	.	.	.	.	.	.	8dd\	-dic-	.	.
8GG/	.	.	.	.	.	.	.	.	.	8g/	-ta	.	.
*	*	*	*	*	*	*	*	*	*	*	*Xij	*	*
=10	=10	=10	=10	=10	=10	=10	=10	=10	=10	=10	=10	=10	=10
!LO:TX:a:t=P:problem=mixed beam	!	!	!	!	!	!	!	!	!	!	!	!	!
16C/LL	.	0r	0r	.	.	.	.	.	.	8ee\	ſit	.	.
16c\	.	.	.	.	.	.	.	.	.	.	.	.	.
16B\	.	.	.	.	.	.	.	.	.	8rdd	.	.	.
16A\JJ	.	.	.	.	.	.	.	.	.	.	.	.	.
!LO:TX:a:t=P:problem=mixed beam	!	!	!	!	!	!	!	!	!	!	!	!	!
8B\L	.	.	.	.	.	.	.	.	.	8dd\	ſit	.	.
8BB/J	.	.	.	.	.	.	.	.	.	8rdd	.	.	.
*	*	*	*	*	*	*	*	*	*	*	*ij	*	*
!LO:TX:a:t=P:problem=mixed beam	!	!	!	!	!	!	!	!	!	!	!	!	!
16AA/LL	.	.	.	.	.	.	.	.	.	4cc\	ſit	.	.
16A\	.	.	.	.	.	.	.	.	.	.	.	.	.
16G\	.	.	.	.	.	.	.	.	.	.	.	.	.
16F#\JJ	.	.	.	.	.	.	.	.	.	.	.	.	.
*	*	*	*	*	*	*	*	*	*	*	*Xij	*	*
!LO:TX:a:t=P:problem=mixed beam	!	!	!	!	!	!	!	!	!	!	!	!	!
8G\L	.	.	.	.	.	.	.	.	.	8rb	.	.	.
*	*	*	*	*	*	*	*	*	*	*	*ij	*	*
8GG/J	.	.	.	.	.	.	.	.	.	8b\	ſit	.	.
*	*	*	*	*	*	*	*	*	*	*	*Xij	*	*
=11	=11	=11	=11	=11	=11	=11	=11	=11	=11	=11	=11	=11	=11
!LO:TX:a:t=P:problem=mixed beam	!	!	!	!	!	!	!	!	!	!	!	!	!
8AA/L	.	.	.	.	.	.	.	.	.	16a\LL	ſan-	.	.
.	.	.	.	.	.	.	.	.	.	16b\	.	.	.
16A\L	.	.	.	.	.	.	.	.	.	16a\	.	.	.
16G\JJ	.	.	.	.	.	.	.	.	.	16b\JJ	.	.	.
8F#\L	6_ 5_	.	.	.	.	.	.	.	.	16cc\LL	.	.	.
.	.	.	.	.	.	.	.	.	.	16dd\	.	.	.
8D\J	X X	.	.	.	.	.	.	.	.	16cc\	.	.	.
.	.	.	.	.	.	.	.	.	.	16dd\JJ	.	.	.
!LO:TX:a:t=P:problem=mixed beam	!	!	!	!	!	!	!	!	!	!	!	!	!
8G\L	.	.	.	.	.	.	.	.	.	16b\LL	.	.	.
.	.	.	.	.	.	.	.	.	.	16cc\	.	.	.
8F#\	.	.	.	.	.	.	.	.	.	16b\	.	.	.
.	.	.	.	.	.	.	.	.	.	16cc\JJ	.	.	.
8G\	.	.	.	.	.	.	.	.	.	(>16b\LL	-cta	.	.
.	.	.	.	.	.	.	.	.	.	16dd\JJ)	.	.	.
!	!	!	!	!	!	!	!	!	!	!LO:LB:g=original	!	!	!
8C/J	8 6	.	.	.	.	.	.	.	.	16cc\LL	Cre-	.	.
.	7 5	.	.	.	.	.	.	.	.	16b\JJ	.	.	.
=12	=12	=12-	=12-	=12	=12	=12	=12	=12	=12	=12	=12	=12	=12
!	!	!LO:N:vis=16	!	!	!	!	!	!	!	!	!	!	!
4D/	.	8r	16r	.	.	.	.	.	.	8a\	-a-	.	.
.	.	.	16d/LL	.	.	.	.	.	.	.	.	.	.
.	.	8a/	16f#/	.	.	.	.	.	.	8d/	-trix	.	.
.	.	.	16a/JJ	.	.	.	.	.	.	.	.	.	.
8r	.	8a/L	8cc\L	.	.	.	.	.	.	4r	.	.	.
8D/	.	16f#/L	16a\L	.	.	.	.	.	.	.	.	.	.
.	.	16g/JJ	16b\JJ	.	.	.	.	.	.	.	.	.	.
8D/L	7_	16a/LL	16cc\LL	.	.	.	.	.	.	2r	.	.	.
.	.	16f#/	16a\	.	.	.	.	.	.	.	.	.	.
8D/	.	16f#/	16a\	.	.	.	.	.	.	.	.	.	.
.	.	16g/JJ	16b\JJ	.	.	.	.	.	.	.	.	.	.
8D/	.	16a/LL	16cc\LL	.	.	.	.	.	.	.	.	.	.
.	.	16f#/	16a\	.	.	.	.	.	.	.	.	.	.
8D/J	X	16f#/	16a\	.	.	.	.	.	.	.	.	.	.
.	.	16g/JJ	16b\JJ	.	.	.	.	.	.	.	.	.	.
=13	=13	=13	=13	=13	=13	=13	=13	=13	=13	=13-	=13-	=13	=13
8G\L	11 9	8a/L	8cc\L	00r	.	00r	.	00r	.	0r	.	00r	00r
16G\L	10 8	8g/J	8b\J	.	.	.	.	.	.	.	.	.	.
16A\JJ	.	.	.	.	.	.	.	.	.	.	.	.	.
8B\L	6 x	16r	16r	.	.	.	.	.	.	.	.	.	.
.	.	16g\LL	16g\LL	.	.	.	.	.	.	.	.	.	.
8G\J	.	16b\	16b\	.	.	.	.	.	.	.	.	.	.
.	.	16dd\JJ	16dd\JJ	.	.	.	.	.	.	.	.	.	.
!	!	!	!LO:LB:g=original	!	!	!	!	!	!	!	!	!	!
8GG/L	.	8gg\L	8gg\L	.	.	.	.	.	.	.	.	.	.
8AA/J	.	16ff#\L	16ff#\L	.	.	.	.	.	.	.	.	.	.
.	.	16ee\JJ	16ee\JJ	.	.	.	.	.	.	.	.	.	.
!LO:LB:g=original	!	!	!	!	!	!	!	!	!	!	!	!	!
8BB/L	.	8dd\L	8dd\L	.	.	.	.	.	.	.	.	.	.
16C/L	.	8cc\J	8cc\J	.	.	.	.	.	.	.	.	.	.
16D/JJ	.	.	.	.	.	.	.	.	.	.	.	.	.
=14	=14	=14	=14	=14	=14	=14	=14	=14	=14	=14	=14	=14	=14
8E\L	.	16b\LL	16b/LL	.	.	.	.	.	.	.	.	.	.
.	.	16a\	16a/	.	.	.	.	.	.	.	.	.	.
16D\L	.	16b\	16b/	.	.	.	.	.	.	.	.	.	.
16C\JJ	.	16cc\JJ	16cc/JJ	.	.	.	.	.	.	.	.	.	.
!	!	!LO:LB:g=original	!	!	!	!	!	!	!	!	!	!	!
!	!	!LO:TX:a:t=P:problem=mixed beam	!LO:TX:a:t=P:problem=mixed beam	!	!	!	!	!	!	!	!	!	!
8BB/L	.	8dd\L	8dd\L	.	.	.	.	.	.	.	.	.	.
8GG/J	.	8g/J	8g/J	.	.	.	.	.	.	.	.	.	.
8C/L	.	8e/L	8e/L	.	.	.	.	.	.	.	.	.	.
16BB/L	.	8g/	8g/	.	.	.	.	.	.	.	.	.	.
16C/JJ	.	.	.	.	.	.	.	.	.	.	.	.	.
!LO:TX:a:t=P:problem=mixed beam	!	!	!	!	!	!	!	!	!	!	!	!	!
8D\L	.	8A/	8A/	.	.	.	.	.	.	.	.	.	.
8DD/J	4	8f#/J	8f#/J	.	.	.	.	.	.	.	.	.	.
.	3	.	.	.	.	.	.	.	.	.	.	.	.
=15	=15	=15	=15	=15	=15	=15	=15	=15	=15	=15-	=15-	=15	=15
4GG/	.	4G/	4g/	.	.	.	.	.	.	8rb	.	.	.
.	.	.	.	.	.	.	.	.	.	16b\	be-	.	.
.	.	.	.	.	.	.	.	.	.	16cc\	-ne-	.	.
8r	.	4rg	4r	.	.	.	.	.	.	8dd\	-dic-	.	.
16G\LL	.	.	.	.	.	.	.	.	.	8g/	-ta	.	.
16F#\JJ	.	.	.	.	.	.	.	.	.	.	.	.	.
!LO:TX:a:t=P:problem=mixed beam	!	!	!	!	!	!	!	!	!	!	!	!	!
8G\L	.	2rg	2rg	.	.	.	.	.	.	8rb	.	.	.
*	*	*	*	*	*	*	*	*	*	*	*ij	*	*
8GG/J	.	.	.	.	.	.	.	.	.	16b\	be-	.	.
.	.	.	.	.	.	.	.	.	.	16cc\	-ne-	.	.
8r	.	.	.	.	.	.	.	.	.	8dd\	-dic-	.	.
8GG/	.	.	.	.	.	.	.	.	.	8g/	-ta	.	.
*	*	*	*	*	*	*	*	*	*	*	*Xij	*	*
=16	=16	=16	=16	=16	=16	=16	=16	=16	=16	=16	=16	=16	=16
!LO:TX:a:t=P:problem=mixed beam	!	!	!	!	!	!	!	!	!	!	!	!	!
16C/LL	.	0r	0r	.	.	.	.	.	.	8ee\	ſit	.	.
16c\	.	.	.	.	.	.	.	.	.	.	.	.	.
16B\	.	.	.	.	.	.	.	.	.	8rdd	.	.	.
16A\JJ	.	.	.	.	.	.	.	.	.	.	.	.	.
!LO:TX:a:t=P:problem=mixed beam	!	!	!	!	!	!	!	!	!	!	!	!	!
8B\L	.	.	.	.	.	.	.	.	.	8dd\	ſit	.	.
8BB/J	.	.	.	.	.	.	.	.	.	8rdd	.	.	.
*	*	*	*	*	*	*	*	*	*	*	*ij	*	*
!LO:TX:a:t=P:problem=mixed beam	!	!	!	!	!	!	!	!	!	!	!	!	!
16AA/LL	.	.	.	.	.	.	.	.	.	4cc\	ſit	.	.
16A\	.	.	.	.	.	.	.	.	.	.	.	.	.
16G\	.	.	.	.	.	.	.	.	.	.	.	.	.
16F#\JJ	.	.	.	.	.	.	.	.	.	.	.	.	.
*	*	*	*	*	*	*	*	*	*	*	*Xij	*	*
!LO:TX:a:t=P:problem=mixed beam	!	!	!	!	!	!	!	!	!	!	!	!	!
8G\L	.	.	.	.	.	.	.	.	.	8rb	.	.	.
8GG/J	.	.	.	.	.	.	.	.	.	8b\	ſit	.	.
=17	=17	=17	=17	=17	=17	=17	=17	=17	=17	=17	=17	=17	=17
!LO:TX:a:t=P:problem=mixed beam	!	!	!	!	!	!	!	!	!	!	!	!	!
8AA/L	.	.	.	0r	.	0r	.	0r	.	16a\LL	ſan-	0r	0r
.	.	.	.	.	.	.	.	.	.	16b\	.	.	.
16A\L	.	.	.	.	.	.	.	.	.	16a\	.	.	.
16G\JJ	.	.	.	.	.	.	.	.	.	16b\JJ	.	.	.
8F#\L	.	.	.	.	.	.	.	.	.	16cc\LL	.	.	.
.	.	.	.	.	.	.	.	.	.	16dd\	.	.	.
8D\J	7	.	.	.	.	.	.	.	.	16cc\	.	.	.
.	.	.	.	.	.	.	.	.	.	16dd\JJ	.	.	.
!LO:TX:a:t=P:problem=mixed beam	!	!	!	!	!	!	!	!	!	!	!	!	!
8G\L	.	.	.	.	.	.	.	.	.	16b\LL	.	.	.
.	.	.	.	.	.	.	.	.	.	16cc\	.	.	.
8F#\	.	.	.	.	.	.	.	.	.	16b\	.	.	.
.	.	.	.	.	.	.	.	.	.	16cc\JJ	.	.	.
8G\	.	.	.	.	.	.	.	.	.	(>16b\LL	-cta	.	.
.	.	.	.	.	.	.	.	.	.	16dd\JJ)	.	.	.
!	!	!	!	!	!	!	!	!	!	!LO:LB:g=original	!	!	!
8C/J	6	.	.	.	.	.	.	.	.	(>16cc\LL	Cre-	.	.
.	5	.	.	.	.	.	.	.	.	16b\JJ)	.	.	.
!LO:LB:g=original	!	!	!	!	!	!	!	!	!	!	!	!	!
=18	=18	=18	=18	=18	=18	=18	=18	=18	=18	=18	=18	=18	=18
8D\L	.	1r	1r	.	.	.	.	.	.	8a\	-a-	.	.
!	!	!	!	!	!	!	!	!	!	!LO:SIC:v:s=8e/	!	!	!
8E\	.	.	.	.	.	.	.	.	.	8d/	-trix	.	.
8F#\	.	.	.	.	.	.	.	.	.	8r	.	.	.
8D\J	.	.	.	.	.	.	.	.	.	8dd\	et	.	.
!LO:TX:a:t=P:problem=mixed beam	!	!	!	!	!	!	!	!	!	!	!	!	!
8G\L	6	.	.	.	.	.	.	.	.	8b\	Gu-	.	.
8E\	.	.	.	.	.	.	.	.	.	8b\	-ber-	.	.
!	!	!	!	!	!	!	!	!	!	!LO:TX:a:B:t=t	!	!	!
8A\	.	.	.	.	.	.	.	.	.	8.cc#X\	-na-	.	.
8AA/J	#	.	.	.	.	.	.	.	.	.	.	.	.
.	.	.	.	.	.	.	.	.	.	16cc#\	-trix	.	.
=19	=19	=19-	=19-	=19-	=19-	=19-	=19-	=19-	=19-	=19	=19	=19-	=19-
!	!	!	!	!LO:TX:a:t=P:problem=w źródle dodana jedna linia nad pięciolinią	!	!	!	!	!	!	!	!	!
!LO:TX:b:Bi:t=Tutti	!	!	!	!	!	!	!	!	!	!LO:TX:a:Bi:t=T&colon;	!	!	!
8d\L	.	2rg	2r	8d\	Om-	8d\	Om-	8a\	Om-	8dd\	Om-	2rg	2rg
8c#X\	.	.	.	16c#X\	-ni-	16A/	-ni-	16a\	-ni-	16ee\	-ni-	.	.
.	.	.	.	16c#\	-um	16A/	-um	16a\	-um	16ee\	-um	.	.
*	*	*	*	*	*ij	*	*ij	*	*ij	*	*ij	*	*
8d\	.	.	.	8d\	Om-	8d\	Om-	8a\	Om-	8dd\	Om-	.	.
8A\J	.	.	.	16A\	-ni-	16e\	-ni-	16a\	-ni-	16cc#X\	-ni-	.	.
.	.	.	.	16A\	-um	16e\	-um	16a\	-um	16cc#\	-um	.	.
*	*	*	*	*	*Xij	*	*Xij	*	*Xij	*	*Xij	*	*
!LO:TX:a:t=P:problem=mixed beam	!	!	!	!	!	!	!	!	!	!	!	!	!
8B\L	.	8r	16r	8B\	ſan-	8d\	ſan-	8f#\	ſan-	8dd\	ſan-	8b/L	8dd/L
.	.	.	16b\LL	.	.	.	.	.	.	.	.	.	.
8BB/J	3	8f#/	16dd\	8B\	-cta	8d\	-cta	8f#\	-cta	8dd\	-cta	16b/L	16dd/L
.	.	.	16ff#\JJ	.	.	.	.	.	.	.	.	16b/JJ	16dd/JJ
4r	.	16b\LL	16dd\LL	4rA	.	4rc	.	4rd	.	4rb	.	16b/LL	16dd/LL
.	.	16f#\	16b\	.	.	.	.	.	.	.	.	16b/	16dd/
.	.	16b\	16dd\	.	.	.	.	.	.	.	.	16b/	16dd/
.	.	16dd\JJ	16ff#\JJ	.	.	.	.	.	.	.	.	16b/JJ	16dd/JJ
=20	=20	=20	=20	=20	=20	=20	=20	=20	=20	=20	=20	=20	=20
*	*	*	*	*	*ij	*	*ij	*	*	*	*	*	*
8B\L	.	8b/L	8dd\L	8B\	om-	8B\	om-	8f#\	om-	8dd\	Om-	8b/L	8dd/L
8A\	.	8f#/J	8b\J	16A\	-ni-	16c#X\	-ni-	16f#\	-ni-	16cc#X\	-ni-	8b/J	8dd/J
.	.	.	.	16A\	-um	16c#\	-um	16f#\	-um	16cc#\	-um	.	.
*	*	*	*	*	*	*	*	*	*ij	*	*ij	*	*
8B\	.	4r	4r	8B\	om-	8B\	om-	8f#\	om-	8dd\	Om-	4rg	4r
8F#\J	6	.	.	16F#\	-ni-	16d\	-ni-	16a\	-ni-	16dd\	-ni-	.	.
.	.	.	.	16F#\	-um	16d\	-um	16a\	-um	16dd\	-um	.	.
*	*	*	*	*	*	*	*	*	*Xij	*	*Xij	*	*
!LO:TX:a:t=P:problem=mixed beam	!	!	!	!	!	!	!	!	!	!	!	!	!
8G\L	.	16r	16r	8G\	ſan-	8d\	ſan-	8g\	ſan-	8b\	ſan-	8g/L	8b/L
.	.	16g\LL	16b\LL	.	.	.	.	.	.	.	.	.	.
8GG/J	.	16b\	16dd\	8G\	-cta	8d\	-cta	8g\	-cta	8b\	-cta	16g/L	16b/L
.	.	16dd\JJ	16gg\JJ	.	.	.	.	.	.	.	.	16g/JJ	16b/JJ
*	*	*	*	*	*Xij	*	*Xij	*	*	*	*	*	*
4r	.	16b\LL	16dd\LL	4r	.	4rc	.	4rd	.	4rb	.	16g/LL	16b/LL
.	.	16g\	16b\	.	.	.	.	.	.	.	.	16g/	16b/
.	.	16b\	16dd\	.	.	.	.	.	.	.	.	16g/	16b/
.	.	16dd\JJ	16gg\JJ	.	.	.	.	.	.	.	.	16g/JJ	16b/JJ
!	!	!	!	!	!	!	!	!	!	!LO:LB:g=original	!	!	!
=21	=21	=21	=21	=21	=21	=21	=21	=21	=21	=21	=21	=21	=21
8G\L	.	8b\L	8dd\L	8G\	om-	8B\	om-	8g\	om-	8dd\	om-	8g/L	8b/L
8F#\	.	8ff#\	8aa\	16F#\	-ni-	16A\	-ni-	16a\	-ni-	16dd\	-ni-	8g/J	8b/J
.	.	.	.	16F#\	-um	16A\	-um	16a\	-um	16dd\	-um	.	.
8G\	.	8dd\	8gg\	8G\	ſan-	8B\	ſan-	8g\	ſan-	8dd\	ſan-	8r	8r
8D\J	.	8dd\J	8ff#\J	8D/	-cta	8A\	-cta	8f#\	-cta	8dd\	-cta	8aa\	8ddd\
!	!	!	!LO:LB:g=original	!LO:LB:g=original	!	!LO:LB:g=original	!	!LO:LB:g=original	!	!	!	!	!
!LO:TX:a:t=P:problem=mixed beam	!	!	!	!	!	!	!	!	!	!	!	!	!
8G\L	6_ 5_	8b\L	8ee\L	8G\	Gu-	8B\	Gu-	8g\	Gu-	8ee\	Gu-	8bb\L	8ddd\L
8E\	.	8dd\	16ff#\L	8E\	-ber-	8B\	-ber-	8g\	-ber-	8ee\	-ber-	8bb\J	8ddd\
.	.	.	16ee\JJ	.	.	.	.	.	.	.	.	.	.
!	!	!	!	!LO:TX:a:t=P:problem=mixed beam	!	!	!	!	!	!	!	!	!
8A\	X X	8a\	8.eeM>\L	8A\L	-na-	4c#X\	-na-	(>8e\L	-na-	4ee\	-na-	4aa\	8.ccc#X\
8AA/J	5 4	8a\J	.	8AA/J	.	.	.	8a\J)	.	.	.	.	.
.	x #	.	16dd\Jk	.	.	.	.	.	.	.	.	.	16ccc#\Jk
=22	=22	=22	=22	=22	=22	=22	=22	=22	=22	=22	=22	=22	=22
!LO:TX:b:Bi:t=ſolo	!	!LO:TX:a:Bi:t=S.	!LO:TX:a:Bi:t=S.	!	!	!	!	!	!	!	!	!	!
!	!	!	!LO:TX:a:t=P:problem=mixed beam	!	!	!	!	!	!	!	!	!	!
8D/L	.	8f#/L	8dd\L	4D/	-trix	4d\	-trix	4a\	-trix	4ff#\	-trix	4aa\	4ddd\
8C#X/	.	8e/	16d/L	.	.	.	.	.	.	.	.	.	.
.	.	.	16e/JJ	.	.	.	.	.	.	.	.	.	.
8D/	.	8f#/	16f#/LL	4r	.	4rc	.	4rd	.	4rb	.	4r	4r
.	.	.	16a/	.	.	.	.	.	.	.	.	.	.
8AA/J	.	8d/J	16d/	.	.	.	.	.	.	.	.	.	.
.	.	.	16f#/JJ	.	.	.	.	.	.	.	.	.	.
!	!	!LO:LB:g=original	!	!	!	!	!	!	!	!	!	!	!
8C#X/L	.	8c#X/L	8e/L	2r	.	2rc	.	2re	.	2rb	.	2rg	2re
8AA/J	.	8e/J	16a/L	.	.	.	.	.	.	.	.	.	.
.	.	.	16b/JJ	.	.	.	.	.	.	.	.	.	.
4r	.	16cc#X\LL	16cc#X\LL	.	.	.	.	.	.	.	.	.	.
.	.	16ee\	16ee\	.	.	.	.	.	.	.	.	.	.
.	.	16a\	16a\	.	.	.	.	.	.	.	.	.	.
.	.	16cc#\JJ	16cc#X\JJ	.	.	.	.	.	.	.	.	.	.
=23	=23	=23	=23	=23-	=23-	=23-	=23-	=23-	=23-	=23-	=23-	=23	=23
8G#X\L	6 x	8b/L	8b/L	00r	.	00r	.	00r	.	00r	.	00r	00r
!	!	!	!LO:SIC:v:s=16f#/L	!	!	!	!	!	!	!	!	!	!
8F#\	.	8a/J	16g#X/L	.	.	.	.	.	.	.	.	.	.
.	.	.	16a/JJ	.	.	.	.	.	.	.	.	.	.
!	!	!	!LO:TX:a:t=P:problem=mixed beam	!	!	!	!	!	!	!	!	!	!
8G#X\	.	8b/L	16b\LL	.	.	.	.	.	.	.	.	.	.
.	.	.	16dd\	.	.	.	.	.	.	.	.	.	.
!	!	!LO:N:vis=8	!	!	!	!	!	!	!	!	!	!	!
8E\J	7 #	16g#X/L	16e/	.	.	.	.	.	.	.	.	.	.
!LO:LB:g=original	!	!	!	!	!	!	!	!	!	!	!	!	!
!	!	!LO:N:vis=8	!	!	!	!	!	!	!	!	!	!	!
.	.	16a/JJ	16dd\JJ	.	.	.	.	.	.	.	.	.	.
8A\L	9 x	8b/L	8dd\L	.	.	.	.	.	.	.	.	.	.
16A\L	8 x	8a/J	8cc#X\J	.	.	.	.	.	.	.	.	.	.
16B\JJ	.	.	.	.	.	.	.	.	.	.	.	.	.
8c#X\L	6 x	8r	16r	.	.	.	.	.	.	.	.	.	.
.	.	.	16a\LL	.	.	.	.	.	.	.	.	.	.
!	!	!LO:TX:a:t=P:problem=w źródle ogonek nuty 8ee po lewej stronie	!	!	!	!	!	!	!	!	!	!	!
8A\J	.	8ee\	16cc#X\	.	.	.	.	.	.	.	.	.	.
.	.	.	16ee\JJ	.	.	.	.	.	.	.	.	.	.
=24	=24	=24	=24	=24	=24	=24	=24	=24	=24	=24	=24	=24	=24
4D\	4 9	8ee\L	8gg\L	.	.	.	.	.	.	.	.	.	.
.	3 8	16cc#X\L	16ee\L	.	.	.	.	.	.	.	.	.	.
.	.	16dd\JJ	16ff#\JJ	.	.	.	.	.	.	.	.	.	.
8r	.	16ee\LL	16gg\LL	.	.	.	.	.	.	.	.	.	.
.	.	16cc#X\	16ee\	.	.	.	.	.	.	.	.	.	.
8AA/	# x	16cc#\	16ee\	.	.	.	.	.	.	.	.	.	.
.	.	16dd\JJ	16ff#\JJ	.	.	.	.	.	.	.	.	.	.
8D\L	9 11	8ee\L	8gg\L	.	.	.	.	.	.	.	.	.	.
16D\L	8 10	16dd\L	8ff#\J	.	.	.	.	.	.	.	.	.	.
16E\JJ	.	16cc#Xi\JJ	.	.	.	.	.	.	.	.	.	.	.
8F#\L	6 x	8dd\L	16r	.	.	.	.	.	.	.	.	.	.
!	!	!	!LO:LB:g=original	!	!	!	!	!	!	!	!	!	!
.	.	.	16dd\LL	.	.	.	.	.	.	.	.	.	.
8D\J	.	8a\J	16ff#\	.	.	.	.	.	.	.	.	.	.
.	.	.	16aa\JJ	.	.	.	.	.	.	.	.	.	.
=25	=25	=25	=25	=25	=25	=25	=25	=25	=25	=25	=25	=25	=25
4DD/	-n	8a/L	8ccn\L	.	.	.	.	.	.	.	.	.	.
.	7	16f#/L	16a\L	.	.	.	.	.	.	.	.	.	.
.	.	16g/JJ	16b\JJ	.	.	.	.	.	.	.	.	.	.
8r	.	16a/LL	16cc\LL	.	.	.	.	.	.	.	.	.	.
.	.	16f#/	16a\	.	.	.	.	.	.	.	.	.	.
8D\	-n	16f#/	16a\	.	.	.	.	.	.	.	.	.	.
.	7	16g/JJ	16b\JJ	.	.	.	.	.	.	.	.	.	.
8A\L	-n3r	8a/L	8cc\L	.	.	.	.	.	.	.	.	.	.
8G\	.	16cc/L	16aa\L	.	.	.	.	.	.	.	.	.	.
.	.	16b/JJ	16gg\JJ	.	.	.	.	.	.	.	.	.	.
8F#\	.	16cc/LL	16aa\LL	.	.	.	.	.	.	.	.	.	.
.	.	16b/	16dd\	.	.	.	.	.	.	.	.	.	.
8E\J	.	16a/	16cc\	.	.	.	.	.	.	.	.	.	.
.	.	16g/JJ	16b\JJ	.	.	.	.	.	.	.	.	.	.
!	!	!LO:LB:g=original	!	!	!	!	!	!	!	!	!	!	!
=26	=26	=26	=26	=26	=26	=26	=26	=26	=26	=26	=26	=26	=26
8D\L	7_	16a/LL	16cc\LL	.	.	.	.	.	.	.	.	.	.
.	.	16g/JJ	16b\JJ	.	.	.	.	.	.	.	.	.	.
8D\	.	4a/	4cc\	.	.	.	.	.	.	.	.	.	.
8E\	.	.	.	.	.	.	.	.	.	.	.	.	.
8F#\J	X	16g/LL	16b/LL	.	.	.	.	.	.	.	.	.	.
.	.	16f#/JJ	16a/JJ	.	.	.	.	.	.	.	.	.	.
8G\L	.	8d/L	8b/L	.	.	.	.	.	.	.	.	.	.
8C\J	6	8e/	16a/L	.	.	.	.	.	.	.	.	.	.
.	.	.	16g/JJ	.	.	.	.	.	.	.	.	.	.
!LO:TX:a:t=P:problem=mixed beam	!	!	!	!	!	!	!	!	!	!	!	!	!
8D/L	.	8.f#/	8.f#/L	.	.	.	.	.	.	.	.	.	.
8DD/J	4	.	.	.	.	.	.	.	.	.	.	.	.
.	3	16f#/Jk	16f#/Jk	.	.	.	.	.	.	.	.	.	.
=27	=27	=27	=27	=27	=27	=27	=27	=27	=27	=27-	=27-	=27	=27
4GG/	.	4g/	4g/	00r	.	00r	.	00r	.	8r	.	00r	00r
.	.	.	.	.	.	.	.	.	.	16b\	be-	.	.
.	.	.	.	.	.	.	.	.	.	16cc\	-ne-	.	.
8r	.	4r	4r	.	.	.	.	.	.	8dd\	-dic-	.	.
16G\LL	.	.	.	.	.	.	.	.	.	8g/	-ta	.	.
16F#\JJ	.	.	.	.	.	.	.	.	.	.	.	.	.
!LO:TX:a:t=P:problem=mixed beam	!	!	!	!	!	!	!	!	!	!	!	!	!
8G\L	.	2rg	2rg	.	.	.	.	.	.	8r	.	.	.
*	*	*	*	*	*	*	*	*	*	*	*ij	*	*
8GG/J	.	.	.	.	.	.	.	.	.	16b\	be-	.	.
.	.	.	.	.	.	.	.	.	.	16cc\	-ne-	.	.
8r	.	.	.	.	.	.	.	.	.	8dd\	-dic-	.	.
8GG/	.	.	.	.	.	.	.	.	.	8g/	-ta	.	.
*	*	*	*	*	*	*	*	*	*	*	*Xij	*	*
!LO:LB:g=original	!	!	!	!	!	!	!	!	!	!	!	!	!
=28	=28	=28	=28	=28	=28	=28	=28	=28	=28	=28	=28	=28	=28
!LO:TX:a:t=P:problem=mixed beam	!	!	!	!	!	!	!	!	!	!	!	!	!
16C/LL	.	0r	0r	.	.	.	.	.	.	8ee\	ſit	.	.
16c\	.	.	.	.	.	.	.	.	.	.	.	.	.
16B\	.	.	.	.	.	.	.	.	.	8rdd	.	.	.
16A\JJ	.	.	.	.	.	.	.	.	.	.	.	.	.
*	*	*	*	*	*	*	*	*	*	*	*ij	*	*
!LO:TX:a:t=P:problem=mixed beam	!	!	!	!	!	!	!	!	!	!	!	!	!
8B\L	.	.	.	.	.	.	.	.	.	8dd\	ſit	.	.
*	*	*	*	*	*	*	*	*	*	*	*Xij	*	*
8BB/J	.	.	.	.	.	.	.	.	.	8rdd	.	.	.
*	*	*	*	*	*	*	*	*	*	*	*ij	*	*
!LO:TX:a:t=P:problem=mixed beam	!	!	!	!	!	!	!	!	!	!	!	!	!
16AA/LL	.	.	.	.	.	.	.	.	.	4cc\	ſit	.	.
16A\	.	.	.	.	.	.	.	.	.	.	.	.	.
16G\	.	.	.	.	.	.	.	.	.	.	.	.	.
16F#\JJ	.	.	.	.	.	.	.	.	.	.	.	.	.
*	*	*	*	*	*	*	*	*	*	*	*Xij	*	*
!LO:TX:a:t=P:problem=mixed beam	!	!	!	!	!	!	!	!	!	!	!	!	!
8G\L	.	.	.	.	.	.	.	.	.	8rb	.	.	.
*	*	*	*	*	*	*	*	*	*	*	*ij	*	*
8GG/J	.	.	.	.	.	.	.	.	.	8b\	ſit	.	.
*	*	*	*	*	*	*	*	*	*	*	*Xij	*	*
!	!	!	!	!	!	!	!	!	!	!LO:LB:g=original	!	!	!
=29	=29	=29	=29	=29	=29	=29	=29	=29	=29	=29	=29	=29	=29
!LO:TX:a:t=P:problem=mixed beam	!	!	!	!	!	!	!	!	!	!	!	!	!
8AA/L	.	.	.	.	.	.	.	.	.	16a\LL	ſan-	.	.
.	.	.	.	.	.	.	.	.	.	16b\	.	.	.
16A\L	.	.	.	.	.	.	.	.	.	16a\	.	.	.
16G\JJ	.	.	.	.	.	.	.	.	.	16b\JJ	.	.	.
8F#\L	6 5	.	.	.	.	.	.	.	.	16cc\LL	.	.	.
.	.	.	.	.	.	.	.	.	.	16dd\	.	.	.
8D\J	7 x	.	.	.	.	.	.	.	.	16cc\	.	.	.
.	.	.	.	.	.	.	.	.	.	16dd\JJ	.	.	.
8GG/L	.	.	.	.	.	.	.	.	.	16b\LL	.	.	.
.	.	.	.	.	.	.	.	.	.	16g\	.	.	.
8AA/	.	.	.	.	.	.	.	.	.	16ee\	.	.	.
.	.	.	.	.	.	.	.	.	.	16dd\JJ	.	.	.
8BB/	.	.	.	.	.	.	.	.	.	16cc\LL	.	.	.
.	.	.	.	.	.	.	.	.	.	16b\	.	.	.
8C/J	.	.	.	.	.	.	.	.	.	16a\	.	.	.
.	.	.	.	.	.	.	.	.	.	16g\JJ	.	.	.
=30	=30	=30-	=30-	=30	=30	=30	=30	=30	=30	=30	=30	=30	=30
!	!	!	!	!	!	!	!	!	!	!LO:TX:a:t=P:problem=mixed beam	!	!	!
4D\	.	2rg	2r	.	.	.	.	.	.	16f#/LL	.	.	.
.	.	.	.	.	.	.	.	.	.	16d/	.	.	.
.	.	.	.	.	.	.	.	.	.	16dd\	.	.	.
.	.	.	.	.	.	.	.	.	.	16cc\JJ	.	.	.
8r	.	.	.	.	.	.	.	.	.	16b\LL	.	.	.
.	.	.	.	.	.	.	.	.	.	16a\	.	.	.
8D\	.	.	.	.	.	.	.	.	.	16g\	.	.	.
.	.	.	.	.	.	.	.	.	.	16f#\JJ	.	.	.
!LO:TX:a:t=P:problem=mixed beam	!	!	!	!	!	!	!	!	!	!	!	!	!
8E\L	.	4rg	4r	.	.	.	.	.	.	(<16e/LL	-cta	.	.
.	.	.	.	.	.	.	.	.	.	16f#/JJ)	.	.	.
8C\	6 5	.	.	.	.	.	.	.	.	(>16g\LL	Cre-	.	.
.	.	.	.	.	.	.	.	.	.	16a\JJ)	.	.	.
8D\	5 4	8r	8r	.	.	.	.	.	.	8.a\L	-a-	.	.
!	!	!LO:TX:a:t=P:problem=w źródle ogonek nuty 8dd po lewej stronie	!LO:TX:a:t=P:problem=w źródle ogonek nuty 8ff# po lewej stronie	!	!	!	!	!	!	!	!	!	!
8DD/J	x 3	8dd\	8ff#\	.	.	.	.	.	.	.	.	.	.
.	.	.	.	.	.	.	.	.	.	16g\Jk	.	.	.
=31	=31	=31	=31	=31	=31	=31	=31	=31	=31	=31	=31	=31	=31
!	!	!	!LO:TX:a:t=P:problem=mixed beam	!	!	!	!	!	!	!	!	!	!
8G\L	.	8b/L	8gg\L	00r	.	00r	.	00r	.	4g/	-trix	00r	00r
8F#\	.	8a/	16g/L	.	.	.	.	.	.	.	.	.	.
.	.	.	16a/JJ	.	.	.	.	.	.	.	.	.	.
!	!	!	!LO:LB:g=original	!	!	!	!	!	!	!	!	!	!
8G\	.	8b/	16b\LL	.	.	.	.	.	.	4r	.	.	.
.	.	.	16dd\	.	.	.	.	.	.	.	.	.	.
8E\J	.	8g/J	16g\	.	.	.	.	.	.	.	.	.	.
.	.	.	16b\JJ	.	.	.	.	.	.	.	.	.	.
8F#\L	6	8a/L	8a/L	.	.	.	.	.	.	2r	.	.	.
8D\J	.	16d/L	16d/L	.	.	.	.	.	.	.	.	.	.
.	.	16e/JJ	16e/JJ	.	.	.	.	.	.	.	.	.	.
4r	.	16f#/LL	16f#/LL	.	.	.	.	.	.	.	.	.	.
.	.	16a/	16a/	.	.	.	.	.	.	.	.	.	.
.	.	16d/	16d/	.	.	.	.	.	.	.	.	.	.
.	.	16f#/JJ	16f#/JJ	.	.	.	.	.	.	.	.	.	.
=32	=32	=32	=32	=32	=32	=32	=32	=32	=32	=32-	=32-	=32	=32
8C#X/L	6	8e/L	8e/L	.	.	.	.	.	.	00r	.	.	.
!	!	!	!LO:SIC:v:s=16B/L	!	!	!	!	!	!	!	!	!	!
8BB/	.	8d/J	16c#X/L	.	.	.	.	.	.	.	.	.	.
.	.	.	16d/JJ	.	.	.	.	.	.	.	.	.	.
8C#X/	.	8e/L	16e/LL	.	.	.	.	.	.	.	.	.	.
.	.	.	16g/	.	.	.	.	.	.	.	.	.	.
8AA/J	.	16c#X/L	16A/	.	.	.	.	.	.	.	.	.	.
.	.	16d/JJ	16g/JJ	.	.	.	.	.	.	.	.	.	.
8D\L	4	8e/L	(<8g/L	.	.	.	.	.	.	.	.	.	.
.	3	.	.	.	.	.	.	.	.	.	.	.	.
16D\L	.	8d/J	8f#/J)	.	.	.	.	.	.	.	.	.	.
16E\JJ	.	.	.	.	.	.	.	.	.	.	.	.	.
!	!	!LO:LB:g=original	!	!	!	!	!	!	!	!	!	!	!
8F#\L	6	8r	16r	.	.	.	.	.	.	.	.	.	.
.	.	.	16d/LL	.	.	.	.	.	.	.	.	.	.
8D\J	.	8a/	16f#/	.	.	.	.	.	.	.	.	.	.
.	.	.	16a/JJ	.	.	.	.	.	.	.	.	.	.
=33	=33	=33	=33	=33	=33	=33	=33	=33	=33	=33	=33	=33	=33
4G\	4 9	8a/L	8cc\L	.	.	.	.	.	.	.	.	.	.
.	3 8	16f#/L	16a\L	.	.	.	.	.	.	.	.	.	.
.	.	16g/JJ	16b\JJ	.	.	.	.	.	.	.	.	.	.
8r	.	16a/LL	16cc\LL	.	.	.	.	.	.	.	.	.	.
.	.	16f#/	16a\	.	.	.	.	.	.	.	.	.	.
8D\	7	16f#/	16a\	.	.	.	.	.	.	.	.	.	.
.	.	16g/JJ	16b\JJ	.	.	.	.	.	.	.	.	.	.
!LO:LB:g=original	!	!	!	!	!	!	!	!	!	!	!	!	!
8G\L	.	8a/L	8cc\L	.	.	.	.	.	.	.	.	.	.
16G\L	.	16g/L	8b\J	.	.	.	.	.	.	.	.	.	.
16A\JJ	.	16f#/JJ	.	.	.	.	.	.	.	.	.	.	.
8B\L	6	8g/L	16r	.	.	.	.	.	.	.	.	.	.
.	.	.	16g/LL	.	.	.	.	.	.	.	.	.	.
8G\J	.	8b/J	16b/	.	.	.	.	.	.	.	.	.	.
.	.	.	16dd/JJ	.	.	.	.	.	.	.	.	.	.
=34	=34	=34	=34	=34	=34	=34	=34	=34	=34	=34	=34	=34	=34
!	!	!	!LO:TX:a:t=P:problem=w źródle bemole przy dźwiękach '16f' i '8f' użyte w formie kasownika	!	!	!	!	!	!	!	!	!	!
!	!	!	!LO:SIC:v:s=8ff\L	!	!	!	!	!	!	!	!	!	!
4GG/	-n	8dd\L	8ff-\L	.	.	.	.	.	.	.	.	.	.
.	7	16b\L	16dd\L	.	.	.	.	.	.	.	.	.	.
.	.	16cc\JJ	16ee\JJ	.	.	.	.	.	.	.	.	.	.
!	!	!	!LO:SIC:v:s=16ff\LL	!	!	!	!	!	!	!	!	!	!
8r	.	16dd\LL	16ff-i\LL	.	.	.	.	.	.	.	.	.	.
.	.	16b\	16dd\	.	.	.	.	.	.	.	.	.	.
8GG/	-n	16b\	16dd\	.	.	.	.	.	.	.	.	.	.
.	7	16cc\JJ	16ee\JJ	.	.	.	.	.	.	.	.	.	.
!	!	!	!LO:LB:g=original	!	!	!	!	!	!	!	!	!	!
!	!	!	!LO:SIC:v:s=8ff\L	!	!	!	!	!	!	!	!	!	!
8C/L	-n	8dd\L	8ff-X\L	.	.	.	.	.	.	.	.	.	.
16C/L	4	16cc\L	8ee\J	.	.	.	.	.	.	.	.	.	.
.	3	.	.	.	.	.	.	.	.	.	.	.	.
16D/JJ	.	16b\JJ	.	.	.	.	.	.	.	.	.	.	.
!LO:TX:a:t=P:problem=mixed beam	!	!	!	!	!	!	!	!	!	!	!	!	!
8E\L	6	8cc\L	16r	.	.	.	.	.	.	.	.	.	.
.	.	.	16a\LL	.	.	.	.	.	.	.	.	.	.
8AA/J	#	8cc#X\J	16cc#X\	.	.	.	.	.	.	.	.	.	.
.	.	.	16ee\JJ	.	.	.	.	.	.	.	.	.	.
=35	=35	=35	=35	=35	=35	=35	=35	=35	=35	=35	=35	=35	=35
4AA/	7 #	8ee\L	8gg\L	00r	.	00r	.	00r	.	.	.	00r	00r
.	.	16cc#X\L	16ee\L	.	.	.	.	.	.	.	.	.	.
.	.	16dd\JJ	16ff#\JJ	.	.	.	.	.	.	.	.	.	.
8r	.	16ee\LL	16gg\LL	.	.	.	.	.	.	.	.	.	.
.	.	16cc#X\	16ee\	.	.	.	.	.	.	.	.	.	.
8AA/	7 #	16cc#\	16ee\	.	.	.	.	.	.	.	.	.	.
.	.	16dd\JJ	16ff#\JJ	.	.	.	.	.	.	.	.	.	.
8D\L	4 x	8ee\L	8gg\L	.	.	.	.	.	.	.	.	.	.
.	3 x	.	.	.	.	.	.	.	.	.	.	.	.
16D\L	.	16dd\L	8ff#\J	.	.	.	.	.	.	.	.	.	.
16E\JJ	.	16cc#X\JJ	.	.	.	.	.	.	.	.	.	.	.
8F#\L	.	8dd\L	16rdd	.	.	.	.	.	.	.	.	.	.
.	.	.	16dd\LL	.	.	.	.	.	.	.	.	.	.
8D\J	.	8a\J	16ff#\	.	.	.	.	.	.	.	.	.	.
.	.	.	16aa\JJ	.	.	.	.	.	.	.	.	.	.
=36	=36	=36	=36	=36	=36	=36	=36	=36	=36	=36	=36	=36	=36
4DD/	-n	8a/L	8cc\L	.	.	.	.	.	.	00r	.	.	.
.	7	16f#/L	16a\L	.	.	.	.	.	.	.	.	.	.
.	.	16g/JJ	16b\JJ	.	.	.	.	.	.	.	.	.	.
!	!	!LO:LB:g=original	!	!	!	!	!	!	!	!	!	!	!
8r	.	16a/LL	16cc\LL	.	.	.	.	.	.	.	.	.	.
.	.	16f#/	16a\	.	.	.	.	.	.	.	.	.	.
8D\	7	16f#/	16a\	.	.	.	.	.	.	.	.	.	.
.	.	16g/JJ	16b\JJ	.	.	.	.	.	.	.	.	.	.
8A\L	3_	8a\L	8cc\L	.	.	.	.	.	.	.	.	.	.
8G\	X	16cc\L	16aa\L	.	.	.	.	.	.	.	.	.	.
.	.	16b\JJ	16gg\JJ	.	.	.	.	.	.	.	.	.	.
8F#\	.	8cc\L	16aa\LL	.	.	.	.	.	.	.	.	.	.
.	.	.	16dd\	.	.	.	.	.	.	.	.	.	.
8E\J	.	16b\L	16cc\	.	.	.	.	.	.	.	.	.	.
.	.	16a\JJ	16b\JJ	.	.	.	.	.	.	.	.	.	.
=37	=37	=37	=37	=37	=37	=37	=37	=37	=37	=37	=37	=37	=37
8D\L	7_	16a/LL	16cc\LL	.	.	.	.	.	.	.	.	.	.
.	.	16g/JJ	16b\JJ	.	.	.	.	.	.	.	.	.	.
8D\	.	4a/	4cc\	.	.	.	.	.	.	.	.	.	.
8E\	.	.	.	.	.	.	.	.	.	.	.	.	.
8F#\J	X	16g/LL	16b/LL	.	.	.	.	.	.	.	.	.	.
.	.	16f#/JJ	16a/JJ	.	.	.	.	.	.	.	.	.	.
!LO:TX:a:t=P:problem=mixed beam	!	!	!	!	!	!	!	!	!	!	!	!	!
8G\L	.	8d/L	8b/L	.	.	.	.	.	.	.	.	.	.
8C/J	6	8e/	16a/L	.	.	.	.	.	.	.	.	.	.
.	5	.	16g/JJ	.	.	.	.	.	.	.	.	.	.
!LO:TX:a:t=P:problem=mixed beam	!	!	!	!	!	!	!	!	!	!	!	!	!
8D\L	4	8.f#/	8.f#/L	.	.	.	.	.	.	.	.	.	.
.	3	.	.	.	.	.	.	.	.	.	.	.	.
8DD/J	.	.	.	.	.	.	.	.	.	.	.	.	.
.	.	16f#/Jk	16f#/Jk	.	.	.	.	.	.	.	.	.	.
!	!	!	!LO:LB:g=original	!	!	!	!	!	!	!	!	!	!
=38	=38	=38	=38	=38	=38	=38	=38	=38	=38	=38	=38	=38	=38
8E\L	3 x	8g/L	16g/LL	.	.	.	.	.	.	.	.	.	.
.	.	.	16a/	.	.	.	.	.	.	.	.	.	.
16D\L	.	16g/L	16b/	.	.	.	.	.	.	.	.	.	.
16C\JJ	.	16a/JJ	16cc/JJ	.	.	.	.	.	.	.	.	.	.
8BB/L	.	8b\L	8dd\L	.	.	.	.	.	.	.	.	.	.
8GG/J	.	8dd\J	8gg\J	.	.	.	.	.	.	.	.	.	.
!	!	!	!LO:TX:a:t=P:problem=mixed beam	!	!	!	!	!	!	!	!	!	!
8C/L	6_ 5_	8cc\L	8ee\L	.	.	.	.	.	.	.	.	.	.
16BB/L	.	16dd\L	8gg\	.	.	.	.	.	.	.	.	.	.
16C/JJ	X X	16ee\JJ	.	.	.	.	.	.	.	.	.	.	.
!LO:PB:g=original	!	!	!	!	!	!	!	!	!	!	!	!	!
8D/L	5 4	8a\L	8d/	.	.	.	.	.	.	.	.	.	.
.	x 3	.	.	.	.	.	.	.	.	.	.	.	.
8DD/J	.	8ff#\J	8ff#\J	.	.	.	.	.	.	.	.	.	.
=39	=39	=39	=39	=39	=39	=39	=39	=39	=39	=39	=39	=39	=39
4GG/	.	4g/	4g/	1r	.	1r	.	1r	.	.	.	1r	1r
4rBB	.	4r	4r	.	.	.	.	.	.	.	.	.	.
2rBB	.	2rg	2r	.	.	.	.	.	.	.	.	.	.
!	!	!LO:TX:a:t=P:problem=ozdobna podwójna kreska taktowa &colon;||&colon;	!LO:TX:a:t=P:problem=ozdobna podwójna kreska taktowa &colon;||&colon;	!	!	!	!	!	!	!	!	!	!
=||	=||	=||	=||	=||	=||	=||	=||	=||	=||	=||	=||	=||	=||
*M3/2	*	*M3/2	*M3/2	*M3/2	*	*M3/2	*	*M3/2	*	*M3/2	*	*M3/2	*M3/2
!LO:TX:a:Bi:t=ſoli	!	!	!	!	!	!	!	!LO:TX:a:Bi:t=ſolo Adagio	!	!LO:TX:a:Bi:t=ſoli adagi	!	!	!
!LO:TX:b:Bi:t=Te invocamus	!	!LO:TX:b:Bi:t=Te invoca(mus)	!	!	!	!	!	!	!	!	!	!	!
!	!	!LO:N:vis=00	!LO:N:vis=00	!LO:N:vis=0	!	!	!	!	!	!LO:N:vis=00	!	!LO:N:vis=00	!LO:N:vis=00
2E\	n	00.r	00.r	0.r	.	2G/	Te	2e\	Te	00.r	.	00.r	00.r
2F#\	6\	.	.	.	.	2F#/	in-	2r	.	.	.	.	.
2G\	6	.	.	.	.	2E/	-vo-	2r	.	.	.	.	.
=40	=40	=40	=40	=40	=40	=40	=40	=40	=40	=40	=40	=40	=40
1.D#X	6	.	.	.	.	1B	-ca-	2d#X,<\	te	.	.	.	.
.	.	.	.	.	.	.	.	2c#X/	in-	.	.	.	.
.	.	.	.	.	.	2B\	-m(us)	2B/	-vo-	.	.	.	.
=41	=41	=41	=41	=41	=41	=41	=41	=41	=41	=41	=41	=41	=41
1F#	7	.	.	1.r	.	1A	te	2c#X/	-ca-	.	.	.	.
.	.	.	.	.	.	.	.	2c#,</	-m(us)	.	.	.	.
2BB/	#	.	.	.	.	2B\	lau-	2d#X\	lau-	.	.	.	.
=42	=42	=42	=42	=42-	=42-	=42	=42	=42	=42	=42	=42	=42	=42
2E\	.	.	.	2E\	Te	2G/	-da-	2e\	-da-	.	.	.	.
2D\	.	.	.	2D/	in-	2E,</	-m(us)	2e,<\	-m(us)	.	.	.	.
*	*	*	*	*	*	*	*	*	*ij	*	*	*	*
2C/	.	.	.	2C/	-vo-	2e\	lau-	2e\	lau-	.	.	.	.
=43	=43	=43	=43	=43	=43	=43	=43	=43	=43	=43-	=43-	=43	=43
!	!	!LO:N:vis=00	!LO:N:vis=00	!	!	!	!	!	!	!	!	!LO:N:vis=00	!LO:N:vis=00
1BB	#	00.r	00.r	1BB	-ca-	1d#X	-da-	1f#	-da-	2b\	Te	00.r	00.r
.	.	.	.	.	.	.	.	.	.	2a\	in-	.	.
2E\	n	.	.	2E\	-m(us)	2B\	-m(us)	2g\	-mus	2g\	-vo-	.	.
*	*	*	*	*	*	*	*	*	*Xij	*	*	*	*
=44	=44	=44	=44	=44	=44	=44	=44	=44-	=44-	=44	=44	=44	=44
!	!	!	!	!	!	!	!	!LO:N:vis=0	!	!	!	!	!
2F#\	n6	.	.	(>2F#\	te	2A/	te	0.r	.	1dd	-ca-	.	.
2E\	.	.	.	2E\)	.	2G/	in-	.	.	.	.	.	.
2D\	.	.	.	2D/	lau-	2F#/	-vo-	.	.	2dd\	-mus	.	.
!	!	!	!	!	!	!	!	!	!	!LO:LB:g=original	!	!	!
=45	=45	=45	=45	=45	=45	=45	=45	=45	=45	=45	=45	=45	=45
!	!	!	!	!	!	!	!	!	!	!LO:TX:a:t=P:problem=w źródle kreska pomiędzy 'te' i 'lau-'	!	!	!
1E	6 x	.	.	1E	-da-	2G/	-ca-	.	.	(>2cc\	te	.	.
.	.	.	.	.	.	2G/	-m(us)	.	.	2b\)	.	.	.
2F#\	6 5	.	.	2F#\	-m(us)	2d\	lau-	.	.	2a\	lau-	.	.
=46	=46	=46	=46	=46	=46	=46	=46	=46	=46	=46	=46	=46	=46
2G\	.	.	.	2G\	te	2d\	-da-	1.r	.	2b\	-da-	.	.
!	!	!	!	!	!	!LO:LB:g=original	!	!	!	!	!	!	!
2F#\	.	.	.	2F#\	a-	2d\	-m(us)	.	.	2a\	-m(us)	.	.
*	*	*	*	*	*	*	*	*	*	*	*ij	*	*
2E\	5	.	.	2E\	-do-	2e\	lau-	.	.	2g/	lau-	.	.
.	6\	.	.	.	.	.	.	.	.	.	.	.	.
=47	=47	=47	=47	=47	=47	=47	=47	=47-	=47-	=47	=47	=47	=47
!	!	!LO:N:vis=00	!LO:N:vis=00	!	!	!	!	!	!	!	!	!LO:N:vis=00	!LO:N:vis=00
2D\	.	00.r	00.r	(>2D\	-ra-	2A/	-da-	2f#\	te	2f#/	-da-	00.r	00.r
2E\	.	.	.	2E\)	.	2A/	-m(us)	2e\	a-	2d/	-m(us)	.	.
*	*	*	*	*	*	*	*	*	*	*	*Xij	*	*
2F#\	6	.	.	2F#\	-mus	2r	.	2d\	-do-	2re	.	.	.
!LO:LB:g=original	!	!	!	!LO:LB:g=original	!	!	!	!LO:LB:g=original	!	!	!	!	!
=48	=48	=48	=48	=48	=48	=48	=48	=48	=48	=48	=48	=48	=48
2G\	.	.	.	2G\	te	2B\	te	(>2g\	-ra-	2dd\	te	.	.
2A\	6	.	.	2rF	.	2c\	a-	2f#\)	.	2cc\	a-	.	.
2B\	6	.	.	2B\	te	2d\	-do-	2g\	-m(us)	2b\	-do-	.	.
=49	=49	=49	=49	=49	=49	=49	=49	=49	=49	=49	=49	=49	=49
2E\	6	.	.	2E\	te	2G/	-ra-	(>2e\	te	2.cc\	-ra-	.	.
2F#\	6	.	.	2rF	.	2A/	-m(us)	2d\)	.	.	.	.	.
.	.	.	.	.	.	.	.	.	.	4cc\	-m(us)	.	.
2G\	.	.	.	2G\	a-	2B\	a-	2d\	a-	2b\	a-	.	.
=50	=50	=50	=50	=50	=50	=50	=50	=50	=50	=50	=50	=50	=50
2C/	6 x	.	.	2C/	-do-	2c\	-do-	2e\	-do-	2a\	-do-	.	.
.	5 x	.	.	.	.	.	.	.	.	.	.	.	.
!	!	!	!	!	!	!	!	!	!	!LO:TX:a:B:t=t	!	!	!
2D/	.	.	.	1D	-ra-	2A/	-ra-	2d\	-ra-	(>2.a\	-ra-	.	.
2DD/	5 4	.	.	.	.	2A/	-m(us)	2d\	-m(us)	.	.	.	.
.	x 3	.	.	.	.	.	.	.	.	4g\)	.	.	.
=51	=51	=51	=51	=51	=51	=51	=51	=51	=51	=51	=51	=51	=51
!	!	!LO:N:vis=00	!LO:N:vis=00	!	!	!	!	!	!	!	!	!LO:N:vis=00	!LO:N:vis=00
1.GG	.	00.r	00.r	1GG	-mus	2B\	te	2d\	te	1g	-mus	00.r	00.r
!	!	!	!	!	!	!	!	!LO:TX:a:t=P:problem=w źrodle poprawka w tekście naniesiona przez skryptora	!	!	!	!	!
.	.	.	.	.	.	2A\	in-	2c/	in-	.	.	.	.
.	.	.	.	2rGG	.	2G/	-vo-	2B/	-vo-	2r	.	.	.
=52	=52	=52	=52	=52	=52	=52	=52	=52	=52	=52	=52	=52	=52
2F#\	6	.	.	2F#\	te	1d	-ca-	1f#	-ca-	1.rb	.	.	.
2E\	.	.	.	2E\	in-	.	.	.	.	.	.	.	.
2D\	.	.	.	2D/	-vo-	2d\	-m(us)	2f#\	-m(us)	.	.	.	.
=53	=53	=53	=53	=53	=53	=53	=53	=53	=53	=53-	=53-	=53	=53
*	*	*	*	*	*	*	*ij	*	*	*	*	*	*
1.G	.	.	.	1G	-ca-	2d\	te	2g\	te	2b\	te	.	.
.	.	.	.	.	.	2c\	in-	2re	.	2a\	in-	.	.
.	.	.	.	2G\	-m(us)	2B\	-vo-	2re	.	2g\	-vo-	.	.
=54	=54	=54	=54	=54	=54	=54	=54	=54	=54	=54	=54	=54	=54
2G\	6	.	.	(>2G\	te	1e	-ca-	2e\	te	1b	-ca-	.	.
2F#\	6\	.	.	2F#\)	.	.	.	2d#X\	in-	.	.	.	.
2E\	n	.	.	2E\	lau-	2e\	-m(us)	2e\	-vo-	2b\	-m(us)	.	.
*	*	*	*	*	*	*	*Xij	*	*	*	*	*	*
!	!	!	!	!	!	!	!	!	!	!LO:LB:g=original	!	!	!
=55	=55	=55	=55	=55	=55	=55	=55	=55	=55	=55	=55	=55	=55
*2\left	*	*	*	*	*	*	*	*	*	*	*	*	*
!	!	!LO:N:vis=00	!LO:N:vis=00	!	!	!	!	!	!	!	!	!LO:N:vis=00	!LO:N:vis=00
2.A\	-n_	00.r	00.r	2.A\	-da-	(>2c\	te	2.e\	-ca-	1a	te	00.r	00.r
.	.	.	.	.	.	2B\)	.	.	.	.	.	.	.
*2\right	*	*	*	*	*	*	*	*	*	*	*	*	*
4G\	.	.	.	4G\	-m(us)	.	.	4e,<\	-m(us)	.	.	.	.
2F#\	6\	.	.	2F#\	a-	2A/	a-	2f#\	a-	2a\	a-	.	.
=56	=56	=56	=56	=56	=56	=56	=56	=56	=56	=56	=56	=56	=56
2E\	n x	.	.	2E\	-do-	2B\	-do-	2B/	-do-	2g/	-do-	.	.
1BB	5 4	.	.	1BB	-ra-	1B	-ra-	(>2e\	-ra-	1f#	-ra-	.	.
.	x #	.	.	.	.	.	.	2d#X\)	.	.	.	.	.
=57	=57	=57	=57	=57	=57	=57	=57	=57	=57	=57	=57	=57	=57
2E\	n	.	.	2E\	-mus	1.B	-mus	2e,<\	-m(us)	1.e	-m(us)	.	.
2F#\	6\	.	.	2r	.	.	.	2d#X\	te	.	.	.	.
2G\	6	.	.	2r	.	.	.	2e\	lau-	.	.	.	.
!	!	!	!	!	!	!LO:LB:g=original	!	!LO:LB:g=original	!	!	!	!	!
=58	=58	=58	=58	=58-	=58-	=58	=58	=58	=58	=58	=58	=58	=58
!	!	!	!	!LO:N:vis=0	!	!	!	!	!	!	!	!	!
1.A	-n	.	.	0.r	.	(>2c\	te-	1e	-da-	2a\	te	.	.
.	.	.	.	.	.	2d\)	.	.	.	2b\	in-	.	.
.	.	.	.	.	.	2e\	-lau-	2e\	-m(us)	2cc\	-vo-	.	.
=59	=59	=59	=59	=59	=59	=59	=59	=59	=59	=59	=59	=59	=59
!	!	!LO:N:vis=00	!LO:N:vis=00	!	!	!	!	!	!	!	!	!LO:N:vis=00	!LO:N:vis=00
2D\	.	00.r	00.r	.	.	1d	-da-	2f#\	te	1dd	-ca-	00.r	00.r
2E\	.	.	.	.	.	.	.	2g\	a-	.	.	.	.
2F#\	.	.	.	.	.	2d\	-m(us)	2a\	-do-	2dd\	-m(us)	.	.
!LO:LB:g=original	!	!	!	!	!	!	!	!	!	!	!	!	!
=60	=60	=60	=60	=60	=60	=60	=60	=60	=60	=60	=60	=60	=60
1.G	.	.	.	1.r	.	2d\	te	1g	-ra-	2b\	te	.	.
.	.	.	.	.	.	2c\	a-	.	.	2cc\	a-	.	.
.	.	.	.	.	.	2B\	-do-	2g\	-m(us)	2dd\	-do-	.	.
=61	=61	=61	=61	=61-	=61-	=61	=61	=61	=61	=61	=61	=61	=61
*	*	*	*	*	*	*	*	*	*ij	*	*	*	*
2E\	n	.	.	2E\	te	(>2e\	-ra-	2g\	te	1ee	-ra-	.	.
2F#\	6\	.	.	2F#\	a-	2d#X\)	.	2a\	a-	.	.	.	.
2G\	6	.	.	2G\	-do-	2e\	-m(us)	2b\	-do-	2ee\	-mus	.	.
!	!	!	!	!LO:LB:g=original	!	!	!	!	!	!	!	!	!
=62	=62	=62	=62	=62	=62	=62	=62	=62	=62	=62-	=62-	=62	=62
!	!	!	!	!	!	!	!	!	!	!LO:N:vis=0	!	!	!
2.A\	n	.	.	2.A\	-ra-	(>2c\	a-	2.e\	-ra-	0.r	.	.	.
.	.	.	.	.	.	2B\)	.	.	.	.	.	.	.
4B\	6\	.	.	4B\	-m(us)	.	.	4d,<\	-mus	.	.	.	.
*	*	*	*	*	*	*	*	*	*Xij	*	*	*	*
2c\	6	.	.	2c\	a-	2A/	.	2e\	a-	.	.	.	.
!	!	!	!	!	!	!	!	!	!	!	!	!	!LO:LB:g=original
=63	=63	=63	=63	=63	=63	=63	=63	=63	=63	=63	=63	=63	=63
!	!	!LO:N:vis=00	!LO:N:vis=00	!	!	!	!	!	!	!	!	!LO:N:vis=00	!LO:N:vis=00
2A\	.	00.r	00.r	2A\	-do-	2e\	-do-	2f#\	-do-	.	.	00.r	00.r
!	!	!	!	!	!	!	!	!LO:TX:a:B:t=t	!	!	!	!	!
2B\	.	.	.	2B\	-ra-	(>2e\	-ra-	1f#	-ra-	.	.	.	.
2BB/	.	.	.	2BB/	.	2d#X\)	.	.	.	.	.	.	.
=64	=64	=64	=64	=64	=64	=64	=64	=64	=64	=64-	=64-	=64	=64
1E	n	.	.	2E,<\	-m(us)	2e,<\	-mus	2e,<\	-m(us)	2r	.	.	.
.	.	.	.	2E\	O	2B\	o	2e\	O	2b\	O	.	.
2BB/	#	.	.	2BB/	be-	2B\	be-	2f#\	Be-	2dd#X\	be-	.	.
=65	=65	=65	=65	=65	=65	=65	=65	=65	=65	=65	=65	=65	=65
1C	7	.	.	1C	-a-	(>2B\	-a-	1e	-a-	1ee	-a-	.	.
.	6\	.	.	.	.	2A#X/	.	.	.	.	.	.	.
2BB/	#	.	.	2BB/	-ta	2B\)	.	2f#\	.	2dd#X\	.	.	.
=66	=66	=66	=66	=66	=66	=66	=66	=66	=66	=66	=66	=66	=66
2AA#X/	6 5	.	.	2AA#X/	Tri-	2c#X\	-ta	2f#\	-ta	2ee\	-ta	.	.
1BB	5 4	.	.	2.BB/	-ni-	2B\	Tri-	2.f#\	Tri-	2.ee\	Tri-	.	.
.	x #	.	.	.	.	2B\	-ni-	.	.	.	.	.	.
.	.	.	.	4BB/	.	.	.	4f#\	-ni-	4dd#X\	-ni-	.	.
!	!	!	!	!	!	!	!	!	!	!LO:LB:g=original	!	!	!
=67	=67	=67	=67	=67	=67	=67	=67	=67	=67	=67	=67	=67	=67
!	!	!LO:TX:b:Bi:t=Verte Cito	!	!	!	!	!	!	!	!	!	!	!
1.EE;>	#	1.r	1.r	1.EE	-tas	1.B	-tas	1.g#X	-tas	1.ee	-tas	1.r	1.rff
!	!	!	!LO:TX:a:t=P:problem=ozdobna podwójna kreska taktowa &colon;||&colon;	!	!	!	!	!	!	!	!	!	!
!	!	!LO:PB:g=original	!LO:PB:g=original	!	!	!LO:LB:g=original	!	!LO:LB:g=original	!	!	!	!LO:LB:g=original	!
=68||	=68||	=68||	=68||	=68||	=68||	=68||	=68||	=68||	=68||	=68||	=68||	=68||	=68||
*M2/2	*	*M2/2	*M2/2	*M4/4	*	*M4/4	*	*M4/4	*	*M4/4	*	*M4/4	*M4/4
*met(c|)	*	*met(c|)	*met(c|)	*met(c)	*	*met(c)	*	*met(c)	*	*met(c)	*	*met(c)	*met(c)
*clefC1	*	*	*	*	*	*	*	*	*	*	*	*	*
!	!	!	!	!LO:TX:a:t=P:problem=w źródle metrum M4/4	!	!LO:TX:a:t=P:problem=w źródle metrum M4/4	!	!LO:TX:a:t=P:problem=w źródle metrum M4/4	!	!LO:TX:a:t=P:problem=w źródle metrum M4/4	!	!LO:TX:a:t=P:problem=w źródle metrum M4/4	!LO:TX:a:t=P:problem=w źródle metrum M4/4
!LO:TX:a:t=P:problem=w źródle metrum alla breve	!	!LO:TX:a:t=P:problem=w źródle metrum alla breve	!LO:TX:a:t=P:problem=w źródle metrum alla breve	!	!	!	!	!	!	!	!	!	!
!LO:TX:b:Bi:t=Alleluia:problem=w źródle 'Alleluia' dopiero pod nutą 8dd	!	!LO:TX:b:Bi:t=Allelua	!LO:TX:b:Bi:t=Allegra	!	!	!	!	!	!	!	!	!LO:TX:b:B:i:t=Alleluia	!LO:TX:b:Bi:t=Alleluia
!LO:TX:a:Bi:t=Preſto:rj	!	!LO:TX:a:Bi:t=Presto	!LO:TX:a:Bi:t=Preſto	!	!	!LO:TX:a:Bi:t=Preſto	!	!	!	!	!	!LO:TX:a:Bi:t=Preſto	!LO:TX:a:Bi:t=Preſto
4b\	1	2rg	4b/	0r	.	1r	.	2r	.	4b\	Al-	00r	00r
4g\	1	.	4g/	.	.	.	.	.	.	4g/	-le-	.	.
8dd/L	.	4f#/	8dd\L	.	.	.	.	4f#\	Al-	8dd\	-lu-	.	.
8dd/	.	.	8dd\	.	.	.	.	.	.	8dd\	-ia	.	.
8a/	.	4d/	8a\	.	.	.	.	4d\	-le-	8a\	al-	.	.
8dd/J	.	.	8dd\J	.	.	.	.	.	.	8dd\	-le-	.	.
=69	=69	=69	=69	=69	=69	=69-	=69-	=69	=69	=69	=69	=69	=69
*^	*	*	*	*	*	*	*	*	*	*	*	*	*
16cc/LL	8a\L	.	8a/L	16cc\LL	.	.	2r	.	8a\	-lu-	(>16cc\LL	-lu-	.	.
16b/J	.	.	.	16b\J	.	.	.	.	.	.	16b\JJ)	.	.	.
8cc/J	8a\	.	8a/	8cc\J	.	.	.	.	8a,<\	-ia	8cc\	-ia	.	.
16g/LL	8e\	.	8d/	16g/LL	.	.	.	.	8e\	al-	(>16g\LL	al-	.	.
16a/	.	.	.	16a/	.	.	.	.	.	.	16a\JJ)	.	.	.
16b/	8a\J	.	8a/J	16b/	.	.	.	.	8a\	-le-	(>16b\LL	-le-	.	.
16cc/JJ	.	.	.	16cc/JJ	.	.	.	.	.	.	16cc\JJ)	.	.	.
!LO:LB:g=original	!	!	!	!	!	!	!	!	!	!	!	!	!	!
*clefC4	*	*	*	*	*	*	*	*	*	*	*	*	*	*
4B\	2ryy	6	8g/L	4dd\	.	.	4B\	Al-	(>16g\LL	-lu-	4dd\	-lu-	.	.
.	.	.	.	.	.	.	.	.	16f#\JJ)	.	.	.	.	.
!	!	!	!	!	!	!	!	!	!LO:SIC:v:s=8f#\	!	!	!	!	!
.	.	.	16f#/L	.	.	.	.	.	8g\	-ia	.	.	.	.
.	.	.	16g/JJ	.	.	.	.	.	.	.	.	.	.	.
!	!	!	!	!	!	!	!	!	!LO:SIC:v:s=16d\LL	!	!	!	!	!
4G/	.	.	16d/LL	4dd\	.	.	4G/	-le-	16d#Xi\LL	al-	4dd\	-ia	.	.
.	.	.	16e/	.	.	.	.	.	16e\JJ	.	.	.	.	.
.	.	.	16.f#/	.	.	.	.	.	(>16f#\LL	-le-	.	.	.	.
.	.	.	.	.	.	.	.	.	16g\JJ)	.	.	.	.	.
.	.	.	32g/JJk	.	.	.	.	.	.	.	.	.	.	.
*v	*v	*	*	*	*	*	*	*	*	*	*	*	*	*
=70	=70	=70	=70	=70-	=70-	=70	=70	=70	=70	=70	=70	=70	=70
*clefF4	*	*	*	*	*	*	*	*	*	*	*	*	*
4F#X\	6	4a/	8r	4F#\	Al-	8d\	-lu-	4a\	-lu-	8r	.	.	.
.	.	.	8a/L	.	.	8d,<\	-ia	.	.	8a\	al-	.	.
4D\	.	8f#/L	8a/	4D\	-le-	8A/	al-	8f#,<\	-ia	8a\	-le-	.	.
.	.	8f#/J	8a/J	.	.	8d\	-le-	8f#\	al-	8a\	-lu-	.	.
8G\L	.	8.g/L	8b/L	8G\	-lu-	(>16B\LL	-lu-	8.g\	-le-	8b\	-ia	.	.
.	.	.	.	.	.	16A\JJ)	.	.	.	.	.	.	.
*	*	*	*	*	*	*	*	*	*	*	*ij	*	*
8G\	.	.	8b/	8G,<\	-ia	8B\	-ia	.	.	8b\	al-	.	.
.	.	16g/Jk	.	.	.	.	.	16g\	-lu-	.	.	.	.
8D\	.	4f#/	8a/	8D/	al-	(<16G/LL	al-	4f#\	-ia	8a\	-le-	.	.
.	.	.	.	.	.	16A/JJ)	.	.	.	.	.	.	.
8G\J	.	.	8b/J	8G\	-le-	(>16B\LL	-le-	.	.	8b\	-lu-	.	.
.	.	.	.	.	.	16c\JJ)	.	.	.	.	.	.	.
!	!	!	!	!	!	!	!	!	!	!LO:PB:g=original	!	!	!
=71	=71	=71	=71	=71	=71	=71	=71	=71	=71	=71	=71	=71	=71
*	*	*	*	*	*	*	*	*	*ij	*	*	*	*
16F#\LL	.	4a/	4a/	(>16F#\LL	-lu-	4d\	-lu-	4a\	al-	4a\	-ia	.	.
16E\J	.	.	.	16E\JJ)	.	.	.	.	.	.	.	.	.
8F#\J	.	.	.	8F#\	-ia	.	.	.	.	.	.	.	.
*	*	*	*	*	*	*	*	*	*	*	*Xij	*	*
!	!	!	!	!LO:LB:g=original	!	!	!	!	!	!	!	!	!
16D\LL	.	4f#/	4r	(>16D\LL	al-	8d,<\	-ia	4f#\	-le-	4r	.	.	.
16E\	.	.	.	16E\JJ)	.	.	.	.	.	.	.	.	.
16F#\	.	.	.	(>16F#\LL	-le-	8d\	al-	.	.	.	.	.	.
16G\JJ	.	.	.	16G\JJ)	.	.	.	.	.	.	.	.	.
4A\	#	8e/L	4cc#X\	4A\	-lu-	4c#X\	-le-	8e\	-lu-	4cc#X\	al-	.	.
.	.	8e/	.	.	.	.	.	8e\	-ia	.	.	.	.
4F#\	6	8a/	4a/	8F#,<\	-ia	4d\	-lu-	8a\	al-	4a\	-le-	.	.
.	.	8a/J	.	8F#\	al-	.	.	8a\	-le-	.	.	.	.
=72	=72	=72	=72	=72	=72	=72	=72	=72	=72	=72	=72	=72	=72
!LO:TX:a:t=P:problem=mixed beam	!	!	!	!	!	!	!	!	!	!	!	!	!
8G\L	6 x	8g/L	8dd\L	8G\	-le-	8d\	-ia	8g\	-lu-	8dd\	-lu-	0r	0r
*	*	*	*	*	*	*	*ij	*	*	*	*	*	*
8E\	.	8g/	8dd\	8E\	-lu-	8d\	al-	8g,<\	-ia	8dd\	-ia	.	.
8A\	.	8e/	8a\	4A,<\	-ia	8.c#X\	-le-	8e\	al-	8a\	al-	.	.
!	!	!	!	!	!	!	!	!LO:LB:g=original	!	!	!	!	!
8AA/J	5 4	8e/J	8ee\J	.	.	.	.	8e\	-le-	8ee\	-le-	.	.
.	x #	.	.	.	.	16c#\	-lu-	.	.	.	.	.	.
4D/	.	8f#/L	16dd\LL	4D/	al-	4d\	-ia	8f#\	-lu-	(>16dd\LL	-lu-	.	.
.	.	.	16cc#X\J	.	.	.	.	.	.	16cc#X\JJ)	.	.	.
.	.	8f#/	8dd\J	.	.	.	.	8f#,<\	-ia	8dd\	-ia	.	.
*	*	*	*	*	*	*	*Xij	*	*Xij	*	*ij	*	*
4BB/	6 x	8g/	8dd\L	4BB/	-le-	4rc	.	8g\	al-	8dd\	al-	.	.
.	.	8g/J	8dd\J	.	.	.	.	8g\	-le-	8dd\	-le-	.	.
!	!	!LO:LB:g=original	!LO:LB:g=original	!	!	!LO:LB:g=original	!	!	!	!	!	!	!
=73	=73	=73	=73	=73	=73	=73	=73	=73	=73	=73	=73	=73	=73
8E\L	.	8g/L	8b/L	8E\	-lu-	2r	.	8g\	-lu-	8b\	-lu-	.	.
8E\J	.	8g/	16a/L	8E,<\	-ia	.	.	8g\	-ia	8g/	-ia	.	.
.	.	.	16g/JJ	.	.	.	.	.	.	.	.	.	.
*	*	*	*	*	*	*	*	*	*ij	*	*Xij	*	*
8AA/L	7	8g/	8a/L	8AA/	al-	.	.	8g\	al-	4r	.	.	.
8D/J	3	8f#/J	8a/J	8D/	-le-	.	.	8f#\	-le-	.	.	.	.
16BB/LL	6	4g/	4g/	16BB/LL	-lu-	4d\	al-	4g\	-lu-	2r	.	.	.
16AA/J	.	.	.	16AA/JJ	.	.	.	.	.	.	.	.	.
8BB/J	.	.	.	8BB/	-ia	.	.	.	.	.	.	.	.
16GG/LL	.	8g/L	4r	16GG/LL	al-	4B\	-le-	8g,<\	-ia	.	.	.	.
16AA/	.	.	.	16AA/JJ	.	.	.	.	.	.	.	.	.
*	*	*	*	*	*	*	*	*	*Xij	*	*	*	*
16BB/	.	8g/J	.	16BB/LL	-le-	.	.	8g\	al-	.	.	.	.
16C/JJ	.	.	.	16C/JJ	.	.	.	.	.	.	.	.	.
=74	=74	=74	=74	=74	=74	=74	=74	=74	=74	=74-	=74-	=74	=74
8D/L	.	4f#/	1rb	8D/L	-lu-	4A/	-lu-	(>4f#\	-le-	1r	.	1r	1r
8C/J	.	.	.	8C/J	.	.	.	.	.	.	.	.	.
4BB/	6	4g/	.	4BB/	-ia	8d,<\	-ia	4g\)	.	.	.	.	.
.	.	.	.	.	.	8d\	al-	.	.	.	.	.	.
8AA/L	7	4.g/	.	8AA/L	al-	4c\	-le-	(>4.g\	-lu-	.	.	.	.
16BB/L	.	.	.	16BB/L	.	.	.	.	.	.	.	.	.
16C/JJ	.	.	.	16C/JJ	.	.	.	.	.	.	.	.	.
!LO:TX:a:t=P:problem=mixed beam	!	!	!	!	!	!	!	!	!	!	!	!	!
8D\L	4	.	.	8D/	-le-	4A/	-lu-	.	.	.	.	.	.
.	3	.	.	.	.	.	.	.	.	.	.	.	.
8DD/J	.	8f#/	.	8D/	-lu-	.	.	8f#\)	.	.	.	.	.
!LO:LB:g=original	!	!	!	!LO:LB:g=original	!	!	!	!	!	!	!	!	!
=75	=75	=75	=75-	=75	=75	=75	=75	=75	=75	=75-	=75-	=75-	=75-
!LO:TX:a:t=P:problem=mixed beam	!	!	!	!	!	!	!	!	!	!	!	!	!
8GG/L	.	4g/	4b/	4GG/	-ia	8B,<\	-ia	4g\	-ia	4b\	al-	2rg	4bb\
8G\	.	.	.	.	.	(>16d\LL	al-	.	.	.	.	.	.
.	.	.	.	.	.	16c\JJ)	.	.	.	.	.	.	.
8B\	.	4r	4g/	4rBB	.	8B\	-le-	4re	.	4g/	-le-	.	4gg\
8G\J	.	.	.	.	.	8d\	-lu-	.	.	.	.	.	.
4F#\	6	2rg	8dd\L	4F#\	al-	8A,</	-ia	2re	.	8dd\	-lu-	4aa\	8ddd\L
*	*	*	*	*	*	*	*ij	*	*	*	*	*	*
.	.	.	8dd\	.	.	8d\	al-	.	.	8dd\	-ia	.	8ddd\
4D\	.	.	8a\	4D\	-le-	8c\	-le-	.	.	8a\	al-	4dd/	8aa\
.	.	.	8dd\J	.	.	8A/	-lu-	.	.	8dd\	-le-	.	8ddd\J
=76	=76	=76	=76	=76	=76	=76	=76	=76	=76	=76	=76	=76	=76
8A\L	5 n	2rg	16cc\LL	8A\	-lu-	8A,</	-ia	2re	.	(>16cc\LL	-lu-	8gg\L	16ccc\LL
.	.	.	16b\J	.	.	.	.	.	.	16b\JJ)	.	.	16bb\J
*	*	*	*	*	*	*	*Xij	*	*	*	*	*	*
*	*	*	*	*	*	*	*ij	*	*	*	*	*	*
8A\	.	.	8cc\J	8A\	-ia	8A/	al-	.	.	8cc\	-ia	8aa\	8ccc\J
!	!	!	!	!	!	!	!	!	!	!LO:LB:g=original	!	!	!
8E\	.	.	16g/LL	8E\	al-	8G/	-le-	.	.	(>16g\LL	al-	8gg\	16gg\LL
.	.	.	16a/	.	.	.	.	.	.	16a\JJ)	.	.	16aa\
8A\J	6 x	.	16b/	8A\	-le	8A/	-lu-	.	.	(>16b\LL	-le-	8dd\J	16bb\
.	.	.	16cc/JJ	.	.	.	.	.	.	16cc\JJ)	.	.	16ccc\JJ
8G\L	6 x	4g/	4b/	(>8G\L	lu-	4B\	-ia	4g\	al-	4b\	-lu-	4gg\	4bb\
8F#\	6\ x	.	.	8F#\J)	.	.	.	.	.	.	.	.	.
*	*	*	*	*	*	*	*Xij	*	*	*	*	*	*
8G\	6	4e/	8b/L	(>8G\L	-ia	4r	.	4e\	-le-	8b,<\	-ia	4rg	4r
8E\J	n x	.	8b/J	8E\J)	.	.	.	.	.	8b\	al-	.	.
=77	=77	=77	=77	=77	=77	=77-	=77-	=77	=77	=77	=77	=77	=77
!	!	!	!	!	!	!	!	!LO:TX:a:t=P:problem=w źródle dodana jedna linia nad pięciolinią	!	!	!	!	!
4D#X/	6	8b/L	4.b/	4D#X/	al-	0r	.	8b\	-lu-	4.b\	-le-	0r	0r
.	.	8b/	.	.	.	.	.	8b\	-ia	.	.	.	.
4BB/	#	8f#/	.	4BB/	-le-	.	.	8f#\	al-	.	.	.	.
.	.	8b/J	8b/	.	.	.	.	8b\	-le-	8b\	-lu-	.	.
8E\L	.	8g/L	8b\L	(>8E\L	-lu-	.	.	(>4.g\	-lu-	8b\	-ia	.	.
8D#X\	.	8f#/	8b\	8D#X\J)	.	.	.	.	.	8b\	al-	.	.
!	!	!	!	!LO:TX:a:t=P:problem=mixed beam	!	!	!	!	!	!	!	!	!
8E\	.	8g/	8ee\	(>8E/L	-ia	.	.	.	.	8ee\	-le-	.	.
8C\J	.	8a/J	8ee\J	8c\J)	.	.	.	8a\)	.	8ee\	-lu-	.	.
=78	=78	=78	=78	=78	=78	=78	=78	=78	=78	=78	=78	=78	=78
!LO:TX:a:t=P:problem=mixed beam	!	!	!	!	!	!	!	!	!	!	!	!	!
8BB/L	#	8f#/L	8dd#X\L	4B\	al-	.	.	4f#,<\	-ia	8dd#X,<\	-ia	.	.
8B\J	.	8f#/	8dd#\	.	.	.	.	.	.	8dd#\	al-	.	.
*	*	*	*	*	*	*	*	*	*ij	*	*	*	*
4G\	6	8g/	8ee\	4G\	-le-	.	.	4g\	al-	2ee\	-le-	.	.
.	.	8g/J	8ee\J	.	.	.	.	.	.	.	.	.	.
!	!	!	!	!	!	!	!	!LO:LB:g=original	!	!	!	!	!
8F#\L	7_	8a/L	8ee\L	8F#\L	-lu-	.	.	4a\	-le-	.	.	.	.
16G\L	.	8a/	8ee\	16G\L	.	.	.	.	.	.	.	.	.
16A\JJ	X	.	.	16A\JJ	.	.	.	.	.	.	.	.	.
!LO:TX:a:t=P:problem=mixed beam	!	!	!	!LO:TX:a:t=P:problem=mixed beam	!	!	!	!	!	!	!	!	!
8B\L	4	8f#/	8dd#X\	8B\L	.	.	.	4f#\	-lu-	4dd#X\	-lu-	.	.
.	#	.	.	.	.	.	.	.	.	.	.	.	.
8BB/J	.	8f#/J	8dd#\J	8BB/J	.	.	.	.	.	.	.	.	.
!	!	!	!LO:LB:g=original	!	!	!	!	!	!	!	!	!	!
=79	=79	=79	=79	=79	=79	=79-	=79-	=79	=79	=79	=79	=79-	=79-
!	!	!LO:TX:a:t=P:problem=mixed beam	!	!	!	!	!	!	!	!	!	!	!
8E\L	7	8g/L	8ee\L	8E\	-ia	8r	.	8g,<\	-ia	8ee\	-ia	2r	4rg
*	*	*	*	*	*ij	*	*	*	*Xij	*	*	*	*
8B\	#	8dd#X\	8ff#\	8B\	al-	8B\	al-	8f#\	al-	8dd#X\	al-	.	.
8B\	.	8dd#\	8ff#\	8B\	-le-	8B\	-le-	8f#\	-le-	8dd#\	-le-	.	8re
!	!	!	!	!	!	!LO:LB:g=original	!	!	!	!	!	!	!
8B\J	.	8dd#\J	8ff#\J	8B\	-lu-	8B\	-lu-	8f#\	-lu-	8dd#\	-lu-	.	8b/
4E\	n	16ee\LL	16gg\LL	4E\	-ia	4B\	-ia	16g\LL	.	16ee\LL	-ia	4rg	8b/L
!	!	!	!LO:TX:a:t=P:problem=w źródle dodana jedna linia nad pięciolinią	!	!	!	!	!	!	!	!	!	!
.	.	16ff#\	16aa\	.	.	.	.	16a\	.	16ff#\	.	.	.
.	.	16ee\	16gg\	.	.	.	.	16g\	.	16ee\	.	.	16b/L
.	.	16ff#\JJ	16aa\JJ	.	.	.	.	16a\JJ	.	16ff#\JJ	.	.	16b/JJ
*	*	*	*	*	*Xij	*	*	*	*	*	*	*	*
!	!	!LO:LB:g=original	!	!	!	!	!	!	!	!	!	!	!
8r	.	16ee\LL	16gg\LL	4r	.	8r	.	16g\LL	.	16ee\LL	.	8re	16b/LL
.	.	16ff#\	16aa\	.	.	.	.	16a\	.	16ff#\	.	.	16b/
8E\	.	16ee\	16gg\	.	.	8B\	al-	16g\	.	16ee\	.	8b/	16b/
.	.	16ff#\JJ	16aa\JJ	.	.	.	.	16a\JJ	.	16ff#\JJ	.	.	16b/JJ
!	!	!	!	!LO:LB:g=original	!	!	!	!	!	!LO:LB:g=original	!	!	!
=80	=80	=80	=80	=80	=80	=80	=80	=80	=80	=80	=80	=80	=80
!	!	!	!LO:TX:a:t=P:problem=w źródle dodana jedna linia nad pięciolinią	!	!	!	!	!	!	!LO:TX:a:t=P:problem=w źródle pod szesnastkami kreski; kontunuacja wokalna sylaby '-ia'	!	!	!
4B\	#	16dd#X\LL	16ff#\LL	1rD	.	4B\	-le-	16f#\LL	.	16dd#X\LL	.	8b/L	4b/
.	.	16ee\	16gg\	.	.	.	.	16g\	.	16ee\	.	.	.
.	.	16dd#\	16ff#\	.	.	.	.	16f#\	.	16dd#\	.	16b/L	.
.	.	16ff#\JJ	16aa\JJ	.	.	.	.	16a\JJ	.	16ee\JJ	.	16b/JJ	.
8r	.	16ee\LL	16gg\LL	.	.	8r	.	16g\LL	.	16ee\LL	.	16b/LL	8r
.	.	16ff#\	16aa\	.	.	.	.	16a\	.	16ff#\	.	16b/	.
8E\	n	16ee\	16gg\	.	.	8B\	-lu-	16g\	.	16ee\	.	16b/	8b/
.	.	16ff#\JJ	16aa\JJ	.	.	.	.	16a\JJ	.	16ff#\JJ	.	16b/JJ	.
4BB/	#	16dd#X\LL	16ff#\LL	.	.	4B\	-ia	16f#\LL	.	16dd#X\LL	.	4b/	8b/L
.	.	16ee\	16gg\	.	.	.	.	16g\	.	16ee\	.	.	.
.	.	16dd#\	16ff#\	.	.	.	.	16f#\	.	16dd#\	.	.	16b/L
.	.	16ff#\JJ	16aa\JJ	.	.	.	.	16a\JJ	.	16ee\JJ	.	.	16b/JJ
!LO:LB:g=original	!	!	!	!	!	!	!	!	!	!	!	!	!
8r	.	16ee\LL	16gg\LL	.	.	8r	.	16g\LL	.	16ee\LL	.	8re	16b/LL
.	.	16ff#\	16aa\	.	.	.	.	16a\	.	16ff#\	.	.	16b/
8E\	n	16ee\	16gg\	.	.	8B\	al-	16g\	.	16ee\	.	8b/	16b/
.	.	16ff#\JJ	16aa\JJ	.	.	.	.	16a\JJ	.	16ff#\JJ	.	.	16b/JJ
=81	=81	=81	=81	=81-	=81-	=81	=81	=81	=81	=81	=81	=81	=81
!	!	!LO:TX:a:t=P:problem=mixed beam	!	!	!	!	!	!	!	!	!	!	!
4B\	#	8dd#X\L	8ff#\L	(>4B\	al-	4B\	-le-	8f#,<\	.	4dd#X\	.	4b/	4b/
.	.	8f#/	8dd#X\	.	.	.	.	8f#\	al-	.	.	.	.
4G\	6	8g/	8ee\	4G\)	.	4B\	-lu-	8g\	-le-	4rdd	.	4r	4r
.	.	8g/J	8ee\J	.	.	.	.	8g\	-lu-	.	.	.	.
8F#\L	7_	8a/L	8ee\L	8F#\L	-le-	8A,</	-ia	8a\	-ia	2rb	.	2rg	2rg
*	*	*	*	*	*	*	*	*	*ij	*	*	*	*
16G\L	.	8a/J	8ee\J	16G\L	.	8c\	al-	8a\	al-	.	.	.	.
16A\JJ	X	.	.	16A\JJ	.	.	.	.	.	.	.	.	.
!	!	!	!	!LO:TX:a:t=P:problem=mixed beam	!	!	!	!	!	!	!	!	!
8B\L	4	8.f#/L	8.dd#X\L	>(8B\L	-lu-	8.B\	-le-	8.f#\	-le-	.	.	.	.
8B\J	#	.	.	8BB/J)	.	.	.	.	.	.	.	.	.
.	.	16f#/Jk	16dd#\Jk	.	.	16B\	-lu-	16f#\	-lu-	.	.	.	.
=82	=82	=82	=82	=82	=82	=82	=82	=82	=82	=82	=82	=82	=82
!	!	!LO:TX:a:t=P:problem=mixed beam	!	!	!	!	!	!	!	!	!	!	!
8E\L	7	16g/LL	16ee\LL	8E,<\	-ia	8B,<\	-ia	8g,<\	-ia	8rb	.	2rg	4r
.	.	16dd\	16ddn\	.	.	.	.	.	.	.	.	.	.
8F#\	-6_	16dd\	16dd\	8F#\	al-	8A\	al-	8f#\	al-	8ddn\	al-	.	.
.	.	16dd\JJ	16dd\JJ	.	.	.	.	.	.	.	.	.	.
!	!	!	!	!	!	!	!	!LO:LB:g=original	!	!	!	!	!
8F#\	.	16dd\LL	16dd\LL	8F#\	-le-	8A\	-le-	8f#\	-le-	8dd\	-le-	.	8re
.	.	16dd\	16dd\	.	.	.	.	.	.	.	.	.	.
!	!	!	!	!	!	!	!	!	!	!	!	!	!LO:LB:g=original
8F#\J	X	16dd\	16dd\	8F#\	-lu-	8A\	-lu-	8f#\	-lu-	8dd\	-lu-	.	8dd/
.	.	16dd\JJ	16dd\JJ	.	.	.	.	.	.	.	.	.	.
!	!	!LO:TX:a:t=P:problem=mixed beam	!LO:TX:a:t=P:problem=mixed beam	!	!	!	!	!	!	!	!	!	!
!	!	!	!	!LO:TX:a:t=P:problem=w źródle pod szesnastkami kreski; kontunuacja wokalna sylaby '-ia'	!	!LO:TX:a:t=P:problem=w źródle pod szesnastkami kreski; kontunuacja wokalna sylaby '-ia'	!	!	!	!	!	!	!
4G\	.	16dd\LL	16dd\LL	16G\LL	-ia	16B\LL	-ia	4d\	-ia	4dd\	-ia	4r	8dd/L
.	.	16d/	16d/	16A\	.	16c\	.	.	.	.	.	.	.
.	.	16d/	16d/	16G\	.	16B\	.	.	.	.	.	.	16dd/L
.	.	16d/JJ	16d/JJ	16A\JJ	.	16c\JJ	.	.	.	.	.	.	16dd/JJ
*	*	*	*	*	*	*	*	*	*Xij	*	*	*	*
!	!	!	!LO:LB:g=original	!	!	!	!	!	!	!	!	!	!
8r	.	16d/LL	16d/LL	16G\LL	.	16B\LL	.	8r	.	8rdd	.	8re	16dd/LL
.	.	16d/	16d/	16A\	.	16c\	.	.	.	.	.	.	16dd/
8GG/	.	16d/	16d/	16G\	.	16B\	.	8d\	al-	8dd\	al-	8dd/	16dd/
.	.	16d/JJ	16d/JJ	16A\JJ	.	16c\JJ	.	.	.	.	.	.	16dd/JJ
!	!	!	!	!	!	!LO:LB:g=original	!	!	!	!	!	!	!
=83	=83	=83	=83	=83	=83	=83	=83	=83	=83	=83	=83	=83	=83
!	!	!	!	!LO:TX:a:t=P:problem=w źródle pod szesnastkami kreski; kontunuacja wokalna sylaby '-ia'	!	!LO:TX:a:t=P:problem=w źródle pod szesnastkami kreski; kontunuacja wokalna sylaby '-ia'	!	!	!	!	!	!	!
4D\	.	16d/LL	16d/LL	16F#\LL	.	16A\LL	.	4d\	-le-	4dd\	-le-	8dd/L	4dd/
.	.	16d/	16d/	16G\	.	16B\	.	.	.	.	.	.	.
.	.	16d/	16d/	16F#\	.	16A\	.	.	.	.	.	16dd/L	.
.	.	16d/JJ	16d/JJ	16G\JJ	.	16c\JJ	.	.	.	.	.	16dd/JJ	.
!	!	!LO:LB:g=original	!	!	!	!	!	!	!	!	!	!	!
8r	.	16d/LL	16d/LL	16G\LL	.	16B\LL	.	8r	.	8rdd	.	16dd/LL	8rg
.	.	16d/	16d/	16A\	.	16c\	.	.	.	.	.	16dd/	.
8GG/	.	16d/	16d/	16G\	.	16B\	.	8d\	-lu-	8dd\	-lu-	16dd/	8dd/
.	.	16d/JJ	16d/JJ	16A\JJ	.	16c\JJ	.	.	.	.	.	16dd/JJ	.
4D/	.	16d/LL	16d/LL	16F#\LL	.	16A\LL	.	4d\	-ia	4dd\	-ia	4dd/	8dd/L
.	.	16d/	16d/	16G\	.	16B\	.	.	.	.	.	.	.
.	.	16d/	16d/	16F#\	.	16A\	.	.	.	.	.	.	16dd/L
.	.	16d/JJ	16d/JJ	16A\JJ	.	16c\JJ	.	.	.	.	.	.	16dd/JJ
!	!	!	!	!	!	!	!	!	!	!	!	!LO:LB:g=original	!
8r	.	16d/LL	16d/LL	16G\LL	.	16B\LL	.	4r	.	8rdd	.	8rg	16dd/LL
.	.	16d/	16d/	16A\	.	16c\	.	.	.	.	.	.	16dd/
8GG/	.	16d/	16d/	16G\	.	16B\	.	.	.	8dd\	al-	8dd/	16dd/
.	.	16d/JJ	16d/JJ	16A\JJ	.	16c\JJ	.	.	.	.	.	.	16dd/JJ
!	!	!	!	!LO:LB:g=original	!	!	!	!	!	!	!	!	!
=84	=84	=84	=84	=84	=84	=84	=84	=84	=84	=84	=84	=84	=84
*	*	*	*	*	*	*	*	*	*ij	*	*	*	*
!	!	!	!LO:TX:a:t=P:problem=mixed beam	!	!	!	!	!	!	!	!	!	!
4D/	.	8d/L	8d/L	4D/	al-	4A/	.	4f#\	al-	8dd\	-le-	4dd/	4dd/
.	.	8f#/	8dd\	.	.	.	.	.	.	8dd\	-lu-	.	.
4BB/	6	8g/	8dd\	4BB/	-le-	4r	.	4g\	-le-	8dd,<\	-ia	8rg	8r
.	.	8g/J	8dd\J	.	.	.	.	.	.	8dd\	al-	8bb\	8ddd\
!	!	!	!	!	!	!	!	!	!	!LO:LB:g=original	!	!	!
8E\L	3	8e/L	8b/L	8E\	-lu-	2r	.	8e\	-lu-	8b\	-le	4gg\	4bb\
8E\J	.	8e/	8b/	8E\	-ia	.	.	8e,<\	-ia	8b\	al-	.	.
*	*	*	*	*	*	*	*	*	*Xij	*	*	*	*
8AA/L	7	8e/	8a/	8AA/	al-	.	.	8e\	al-	8a\	-le-	8gg\L	8aa\L
8D/J	3	8f#/J	8a/J	8D/	-le-	.	.	8f#\	-le-	8a\	-lu-	8aa\J	8aa\J
=85	=85	=85	=85	=85	=85	=85	=85	=85	=85	=85	=85	=85	=85
8BB/L	.	8g/L	16dd\LL	8BB/	-lu-	2r	.	(>4.g\	-lu-	8dd\	-ia	8bb\L	8ddd\L
.	.	.	16dd\	.	.	.	.	.	.	.	.	.	.
16AA/L	.	8g/J	16cc\	16AA/	-ia	.	.	.	.	(>16cc\LL	al-	16aa\L	16ccc\L
16GG/JJ	.	.	16b\JJ	16GG/	al-	.	.	.	.	16b\JJ)	.	16gg\JJ	16bb\JJ
!LO:TX:a:t=P:problem=mixed beam	!	!	!	!	!	!	!	!	!	!	!	!	!
8D\L	5 4	8.g/L	8b/L	8D\	-le-	.	.	.	.	8.a\	-le-	4dd/	8.aa\L
.	x 3	.	.	.	.	.	.	.	.	.	.	.	.
8DD/J	.	.	16a/L	8D\	-lu-	.	.	8f#\)	.	.	.	.	.
.	.	16f#/Jk	16g/JJ	.	.	.	.	.	.	16a\	-lu-	.	16aa\Jk
!LO:TX:a:t=P:problem=mixed beam	!	!	!	!	!	!	!	!	!	!	!	!	!
8GG/L	.	16g/LL	16g\LL	8GG,</	-ia	8rc	.	8g\	-ia	8g,</	-ia	4b/	4gg\
.	.	16b/	16dd\	.	.	.	.	.	.	.	.	.	.
*	*	*	*	*	*ij	*	*	*	*	*	*	*	*
8G\J	.	16b/	16dd\	8G\	al-	8d\	al-	8d\	al-	8b\	al-	.	.
.	.	16b/JJ	16dd\JJ	.	.	.	.	.	.	.	.	.	.
!LO:LB:g=original	!	!	!	!	!	!	!	!	!	!	!	!	!
!LO:TX:a:t=P:problem=mixed beam	!	!	!	!	!	!	!	!	!	!	!	!	!
8BB/L	.	16b/LL	16dd\LL	8G\	-le-	8d\	-le-	8d\	-le-	8b\	-le-	4rg	8rg
.	.	16b/	16dd\	.	.	.	.	.	.	.	.	.	.
8G\J	.	16b/	16dd\	8G\	-lu-	8d\	-lu-	8d\	-lu-	8b\	-lu-	.	8g/
.	.	16b/JJ	16dd\JJ	.	.	.	.	.	.	.	.	.	.
=86	=86	=86	=86	=86	=86	=86	=86	=86	=86	=86	=86	=86	=86
!	!	!	!LO:TX:a:t=P:problem=w źródle bemole przy dźwiękach '16f' użyte w formie kasownika	!	!	!	!	!LO:TX:a:t=P:problem=w źródle bemole przy dźwiękach '16f' użyte w formie kasownika	!	!	!	!	!
!	!	!	!	!	!	!	!	!	!	!LO:TX:a:t=P:problem=w źródle pod szesnastkami kreski; kontunuacja wokalna sylaby '-ia'	!	!	!
4C/	.	16cc\LL	16ee\LL	4C/	-ia	4c\	-ia	16e\LL	-ia	16cc\LL	-ia	4rdd	8g/L
!	!	!	!LO:SIC:v:s=16ff\	!	!	!	!	!LO:SIC:v:s=16f\	!	!	!	!	!
.	.	16dd\	16ff-X\	.	.	.	.	16f-i\	.	16dd\	.	.	.
.	.	16cc\	16ee\	.	.	.	.	16e\	.	16cc\	.	.	16g/L
!	!	!	!LO:SIC:v:s=16ff\JJ	!	!	!	!	!LO:SIC:v:s=16f\JJ	!	!	!	!	!
.	.	16dd\JJ	16ff-\JJ	.	.	.	.	16f-\JJ	.	16dd\JJ	.	.	16g/JJ
*	*	*	*	*	*Xij	*	*	*	*	*	*	*	*
!	!	!	!LO:LB:g=original	!	!	!	!	!	!	!	!	!	!
8r	.	16cc\LL	16ee\LL	8r	.	8r	.	16e\LL	.	16cc\LL	.	8rg	16g/LL
!	!	!	!LO:SIC:v:s=16ff\	!	!	!	!	!LO:SIC:v:s=16f\	!	!	!	!	!
.	.	16dd\	16ff-X\	.	.	.	.	16f-X\	.	16dd\	.	.	16g/
8C/	.	16cc\	16ee\	8C/	al-	8G/	al-	16e\	.	16cc\	.	8g/	16g/
!	!	!	!LO:SIC:v:s=16ff\JJ	!	!	!	!	!LO:SIC:v:s=16f\JJ	!	!	!	!	!
.	.	16dd\JJ	16ff-\JJ	.	.	.	.	16f-\JJ	.	16dd\JJ	.	.	16g/JJ
!	!	!	!	!	!	!	!	!LO:PB:g=original	!	!	!	!	!
4G\	.	16b\LL	16dd\LL	4G\	-le-	4G/	-le-	16d\LL	.	16b\LL	.	8g/L	4g/
.	.	16cc\	16ee\	.	.	.	.	16e\	.	16cc\	.	.	.
.	.	16b\	16dd\	.	.	.	.	16d\	.	16b\	.	16g/L	.
!	!	!	!LO:SIC:v:s=16ff\JJ	!	!	!	!	!LO:SIC:v:s=16f\JJ	!	!	!	!	!
.	.	16dd\JJ	16ff-X\JJ	.	.	.	.	16f-X\JJ	.	16dd\JJ	.	16g/JJ	.
8r	.	16cc\LL	16ee\LL	8rF	.	8r	.	16e\LL	.	16cc\LL	.	16g/LL	8re
!	!	!	!LO:SIC:v:s=16ff\	!	!	!	!	!LO:SIC:v:s=16f\	!	!	!	!	!
.	.	16dd\	16ff-X\	.	.	.	.	16f-X\	.	16dd\	.	16g/	.
8c\	.	16cc\	16ee\	8c\	-lu-	8G/	-lu-	16e\	.	16cc\	.	16g/	8g/
!	!	!	!LO:SIC:v:s=16ff\JJ	!	!	!	!	!LO:SIC:v:s=16f\JJ	!	!	!	!	!
.	.	16dd\JJ	16ff-\JJ	.	.	.	.	16f-\JJ	.	16dd\JJ	.	16g/JJ	.
!	!	!LO:LB:g=original	!	!	!	!	!	!	!	!	!	!	!
=87	=87	=87	=87	=87	=87	=87	=87	=87	=87	=87	=87	=87	=87
!	!	!	!LO:TX:a:t=P:problem=w źródle bemole przy dźwiękach '16f' użyte w formie kasownika	!	!	!	!	!LO:TX:a:t=P:problem=w źródle bemole przy dźwiękach '16f' użyte w formie kasownika	!	!	!	!	!
4G\	.	16b\LL	16dd\LL	4G\	-ia	4B\	-ia	16d\LL	.	16b\LL	.	4g/	8g/L
.	.	16cc\	16ee\	.	.	.	.	16e\	.	16cc\	.	.	.
.	.	16b\	16dd\	.	.	.	.	16d\	.	16b\	.	.	16g/L
!	!	!	!LO:SIC:v:s=16ff\JJ	!	!	!	!	!LO:SIC:v:s=16f\JJ	!	!	!	!	!
.	.	16dd\JJ	16ff-X\JJ	.	.	.	.	16f-\JJ	.	16dd\JJ	.	.	16g/JJ
!	!	!	!	!LO:PB:g=original	!	!	!	!	!	!	!	!	!LO:LB:g=original
8r	.	16cc\LL	16ee\LL	8r	.	4r	.	16e\LL	.	16cc\LL	.	8r	8g/L
!	!	!	!LO:SIC:v:s=16ff\	!	!	!	!	!LO:SIC:v:s=16f\	!	!	!	!	!
.	.	16dd\	16ff-X\	.	.	.	.	16f-X\	.	16dd\	.	.	.
8C/	.	16cc\	16ee\	8C/	lu-	.	.	16e\	.	16cc\	.	8g/	8g/J
!	!	!	!LO:SIC:v:s=16ff\JJ	!	!	!	!	!LO:SIC:v:s=16f\JJ	!	!	!	!	!
.	.	16dd\JJ	16ff-\JJ	.	.	.	.	16f-\JJ	.	16dd\JJ	.	.	.
!	!	!	!	!	!	!	!	!	!	!LO:LB:g=original	!	!	!
4G\	.	16b\LL	16dd\LL	4GG/	-ia	4d\	al-	4d\	.	4b\	al-	8g/L	4bb\
.	.	16gg\	16gg\	.	.	.	.	.	.	.	.	.	.
.	.	16gg\	16gg\	.	.	.	.	.	.	.	.	16g/L	.
.	.	16gg\JJ	16gg\JJ	.	.	.	.	.	.	.	.	16g/JJ	.
4r	.	16gg\LL	16gg\LL	4rBB	.	4B\	-le-	4r	.	4g/	-le-	4g/	4gg\
.	.	16gg\	16gg\	.	.	.	.	.	.	.	.	.	.
.	.	16gg\	16gg\	.	.	.	.	.	.	.	.	.	.
.	.	16gg\JJ	16gg\JJ	.	.	.	.	.	.	.	.	.	.
=88	=88	=88	=88	=88	=88	=88	=88	=88	=88	=88	=88	=88	=88
4F#\	6	16aa\LL	16aa\LL	4F#\	al-	8A/	-lu-	2r	.	8dd\	-lu-	4aa\	8ddd\L
.	.	16aa\	16aa\	.	.	.	.	.	.	.	.	.	.
.	.	16aa\	16aa\	.	.	8A/	-ia	.	.	8dd,<\	-ia	.	8ddd\
.	.	16aa\JJ	16aa\JJ	.	.	.	.	.	.	.	.	.	.
!	!	!	!	!	!	!LO:LB:g=original	!	!	!	!	!	!	!
*	*	*	*	*	*	*	*ij	*	*	*	*	*	*
4D\	.	16aa\LL	16aa\LL	4D/	-le-	8F#/	al-	.	.	8a\	al-	4dd\	8aa\
.	.	16aa\	16aa\	.	.	.	.	.	.	.	.	.	.
.	.	16aa\	16aa\	.	.	8A/	-le-	.	.	8dd\	-le-	.	8ddd\J
.	.	16aa\JJ	16aa\JJ	.	.	.	.	.	.	.	.	.	.
!	!	!	!	!	!	!	!	!	!	!	!	!LO:LB:g=original	!
8A\L	3	16aa\LL	16aa\LL	8A\	-lu-	4A/	-lu-	4e\	al-	(>16cc\LL	-lu-	16aa\LL	16ccc\LL
.	.	16aa\	16aa\	.	.	.	.	.	.	16b\JJ)	.	16gg\J	16bb\J
8A\	.	16aa\	16aa\	8A,<\	-ia	.	.	.	.	8cc\	-ia	8aa\J	8ccc\J
.	.	16aa\JJ	16aa\JJ	.	.	.	.	.	.	.	.	.	.
8E\	.	16aa\LL	16aa\LL	8E\	al-	4A/	-ia	4c\	-le-	16g\LL	al-	16b/LL	16gg\LL
.	.	16aa\	16aa\	.	.	.	.	.	.	16a\	.	16dd/	16aa\
8A\J	6	16aa\	16aa\	8A\	-le-	.	.	.	.	16b\	.	16gg/	16bb\
.	.	16aa\JJ	16aa\JJ	.	.	.	.	.	.	16cc\JJ	.	16aa/JJ	16ccc\JJ
*	*	*	*	*	*	*	*Xij	*	*	*	*	*	*
=89	=89	=89	=89	=89	=89	=89	=89	=89	=89	=89	=89	=89	=89
8G\L	.	16bb\LL	16bb\LL	(>8G\L	-lu-	2r	.	8g\	-lu-	4dd\	-le-	4bb\	4ddd\
.	.	16dd\	16dd\	.	.	.	.	.	.	.	.	.	.
8F#\	.	16dd\	16dd\	8F#\J)	.	.	.	8g\	-ia	.	.	.	.
.	.	16dd\JJ	16dd\JJ	.	.	.	.	.	.	.	.	.	.
!	!	!	!LO:LB:g=original	!	!	!	!	!	!	!	!	!	!
!	!	!LO:TX:a:t=P:problem=mixed beam	!LO:TX:a:t=P:problem=mixed beam	!	!	!	!	!	!	!	!	!	!
8G\	.	16gg\LL	16gg\LL	(>8G\L	-ia	.	.	8d\	al-	8dd\	-lu-	8bb\L	8ddd\L
.	.	16a/	16a/	.	.	.	.	.	.	.	.	.	.
8D\J	.	16a/	16a/	8D\J)	.	.	.	8f#\	-le-	8dd\	-ia	8aa\J	8ddd\J
.	.	16a/JJ	16a/JJ	.	.	.	.	.	.	.	.	.	.
*	*	*	*	*	*	*	*	*	*	*	*ij	*	*
!LO:TX:a:t=P:problem=mixed beam	!	!LO:TX:a:t=P:problem=mixed beam	!LO:TX:a:t=P:problem=mixed beam	!	!	!	!	!	!	!	!	!	!
8E\L	.	16g/LL	16g/LL	8E\	al-	8rc	.	(>4g\	-lu-	8b\	al-	8gg\L	8bb\L
.	.	16gg\	16gg\	.	.	.	.	.	.	.	.	.	.
*	*	*	*	*	*	*	*ij	*	*	*	*	*	*
8C\	.	16gg\	16gg\	8C/	-le-	8e\	al-	.	.	8a\	-le-	8dd\J	8aa\J
.	.	16gg\JJ	16gg\JJ	.	.	.	.	.	.	.	.	.	.
8D\	.	16gg\LL	16gg\LL	4D/	-lu-	8d\	-le-	4f#\)	.	4a\	-lu-	4dd/	4aa\
.	.	16gg\	16gg\	.	.	.	.	.	.	.	.	.	.
8DD\J	.	16ff#\	16ff#\	.	.	8d\	-lu-	.	.	.	.	.	.
.	.	16ff#\JJ	16ff#\JJ	.	.	.	.	.	.	.	.	.	.
!	!	!LO:LB:g=original	!	!	!	!	!	!	!	!	!	!	!
=90	=90	=90	=90	=90	=90	=90	=90	=90	=90	=90	=90	=90	=90
8GG/L	.	16gg\LL	16gg\LL	8GG/	-ia	8d,<\	-ia	8g\	-ia	8g,</	-ia	8b/L	8gg\L
.	.	16ee\	16ee\	.	.	.	.	.	.	.	.	.	.
*	*	*	*	*	*	*	*Xij	*	*	*	*Xij	*	*
8C/	6 5	16ee\	16ee\	8C/	al-	8e\	al-	8g\	al-	8ee\	al-	16dd/L	16dd\L
.	.	16ee\JJ	16ee\JJ	.	.	.	.	.	.	.	.	16dd/JJ	16dd\JJ
!	!	!	!LO:TX:a:t=P:problem=mixed beam	!	!	!	!	!	!	!	!	!	!
8D/	5 4	16a/LL	16a/LL	8D\	-le-	8d\	-le-	8g\	-le-	8b\	-le-	16dd/LL	16dd/LL
.	x 3	16dd/	16ff#\	.	.	.	.	.	.	.	.	16dd/	16dd/
8D/J	.	16dd/	16ff#\	8DD/	-lu-	8d\	-lu-	8f#\	-lu-	8dd\	-lu-	16b/	16dd/
.	.	16dd/JJ	16ff#\JJ	.	.	.	.	.	.	.	.	16b/JJ	16dd/JJ
4GG/	.	4b/	4gg\	4GG/	-ia	4d\	-ia	4g\	-ia	4b\	-ia	4g/	4b/
4r	.	4r	4rdd	4rGG	.	4rc	.	4rd	.	4r	.	4r	4r
!	!	!LO:TX:a:Bi:t=K R	!	!	!	!	!	!	!	!	!	!	!
!	!	!	!	!LO:TX:a:t=P:problem=ozdobna kreska końcowa &colon;||&colon;	!	!LO:TX:a:t=P:problem=ozdobna kreska końcowa &colon;||&colon;	!	!LO:TX:a:t=P:problem=ozdobna kreska końcowa &colon;||&colon;	!	!LO:TX:a:t=P:problem=ozdobna kreska końcowa &colon;||&colon;	!	!	!
!	!	!	!	!	!	!	!	!	!	!	!	!LO:TX:a:t=P:problem=ozdobna kreska końcowa	!LO:TX:a:t=P:problem=ozdobna kreska końcowa &colon;||&colon;
!LO:TX:a:t=P:problem=ozdobna kreska końcowa &colon;||&colon;	!	!LO:TX:a:t=P:problem=ozdobna kreska końcowa &colon;||&colon;	!LO:TX:a:t=P:problem=ozdobna kreska końcowa &colon;||&colon;	!	!	!	!	!	!	!	!	!	!
==	==	==	==	==	==	==	==	==	==	==	==	==	==
*-	*-	*-	*-	*-	*-	*-	*-	*-	*-	*-	*-	*-	*-
!!!system-decoration: [(s1,s2)][(s3,s4,s5,s6)][(s7,s8)]s9
!!!RDF**kern: > = above
!!!RDF**kern: < = below
!!!RDF**kern: i = editorial accidental
!!!EED: Wojciech Jakubiak-Danek
!!!EEV: 2020-11-09
!!!ENC: Marcin Jachim
!!!END: 2020-05-06
